deuteranomaly_emotive_to_.5.cube
TITLE "daltoLAB Deuteranomaly Emotive Naturalized to .5"
# Alessandro Bellia
LUT_3D_SIZE 33
0.0000 0.0000 0.0000
0.0319 -0.0004 0.0033
0.0651 -0.0007 0.0061
0.1016 -0.0008 0.0059
0.1410 -0.0009 0.0056
0.1827 -0.0009 0.0047
0.2260 -0.0010 0.0039
0.2710 -0.0011 0.0033
0.3173 -0.0012 0.0028
0.3651 -0.0010 0.0026
0.4129 0.0002 0.0069
0.4636 0.0013 0.0213
0.5185 0.0010 0.0454
0.5785 -0.0012 0.0807
0.6405 -0.0029 0.1228
0.7023 -0.0032 0.1685
0.7611 -0.0022 0.2150
0.7968 -0.0014 0.2552
0.8278 -0.0009 0.2960
0.8560 -0.0002 0.3363
0.8832 0.0005 0.3746
0.9096 0.0009 0.4133
0.9348 0.0013 0.4526
0.9568 0.0017 0.4895
0.9750 0.0023 0.5255
0.9881 0.0026 0.5626
0.9964 0.0025 0.6022
1.0009 0.0024 0.6419
1.0030 0.0024 0.6803
1.0036 0.0023 0.7196
1.0034 0.0019 0.7588
1.0020 0.0012 0.7963
0.9998 0.0005 0.8207
0.0098 0.0289 -0.0024
0.0328 0.0309 0.0017
0.0732 0.0276 0.0110
0.1148 0.0247 0.0185
0.1573 0.0224 0.0221
0.1986 0.0211 0.0219
0.2418 0.0197 0.0202
0.2862 0.0182 0.0185
0.3315 0.0167 0.0170
0.3770 0.0157 0.0172
0.4204 0.0158 0.0229
0.4655 0.0153 0.0401
0.5200 0.0125 0.0654
0.5793 0.0083 0.0981
0.6413 0.0043 0.1356
0.7030 0.0009 0.1778
0.7621 -0.0013 0.2220
0.7986 -0.0013 0.2621
0.8301 -0.0011 0.3018
0.8583 -0.0005 0.3413
0.8851 0.0001 0.3800
0.9111 0.0006 0.4183
0.9356 0.0011 0.4561
0.9570 0.0014 0.4923
0.9746 0.0019 0.5287
0.9875 0.0022 0.5664
0.9958 0.0022 0.6057
1.0004 0.0021 0.6449
1.0027 0.0021 0.6841
1.0034 0.0020 0.7229
1.0031 0.0016 0.7614
1.0017 0.0009 0.7973
0.9996 0.0002 0.8204
0.0035 0.0628 -0.0003
0.0194 0.0665 0.0040
0.0482 0.0670 0.0060
0.1099 0.0570 0.0196
0.1629 0.0496 0.0367
0.2118 0.0445 0.0428
0.2562 0.0412 0.0418
0.3009 0.0383 0.0369
0.3465 0.0352 0.0345
0.3900 0.0328 0.0367
0.4296 0.0314 0.0451
0.4696 0.0300 0.0639
0.5240 0.0246 0.0878
0.5826 0.0183 0.1178
0.6441 0.0116 0.1521
0.7061 0.0054 0.1914
0.7654 0.0001 0.2329
0.8026 -0.0008 0.2720
0.8342 -0.0010 0.3105
0.8622 -0.0005 0.3491
0.8887 0.0000 0.3868
0.9140 0.0005 0.4245
0.9377 0.0010 0.4616
0.9582 0.0013 0.4971
0.9751 0.0017 0.5335
0.9875 0.0020 0.5713
0.9956 0.0020 0.6105
1.0002 0.0020 0.6495
1.0025 0.0020 0.6884
1.0033 0.0018 0.7272
1.0030 0.0015 0.7649
1.0015 0.0007 0.8009
0.9994 0.0000 0.8236
0.0005 0.0963 0.0006
0.0143 0.1003 0.0054
0.0308 0.1037 0.0105
0.0655 0.1023 0.0125
0.1367 0.0895 0.0226
0.2020 0.0767 0.0493
0.2582 0.0679 0.0592
0.3120 0.0604 0.0608
0.3569 0.0557 0.0602
0.4025 0.0507 0.0589
0.4378 0.0483 0.0714
0.4750 0.0454 0.0898
0.5298 0.0374 0.1140
0.5886 0.0287 0.1403
0.6503 0.0192 0.1717
0.7123 0.0101 0.2085
0.7716 0.0019 0.2478
0.8084 0.0001 0.2850
0.8400 -0.0007 0.3227
0.8679 -0.0003 0.3603
0.8937 0.0001 0.3967
0.9185 0.0006 0.4333
0.9411 0.0010 0.4698
0.9606 0.0013 0.5043
0.9764 0.0017 0.5405
0.9879 0.0019 0.5789
0.9956 0.0020 0.6179
1.0000 0.0020 0.6564
1.0023 0.0020 0.6948
1.0031 0.0019 0.7333
1.0027 0.0015 0.7710
1.0013 0.0008 0.8050
0.9992 0.0002 0.8263
0.0001 0.1294 0.0018
0.0122 0.1336 0.0058
0.0252 0.1376 0.0114
0.0432 0.1403 0.0170
0.0770 0.1387 0.0199
0.1609 0.1223 0.0224
0.2415 0.1029 0.0600
0.3018 0.0915 0.0719
0.3585 0.0813 0.0769
0.4029 0.0741 0.0864
0.4384 0.0692 0.1015
0.4756 0.0639 0.1225
0.5371 0.0505 0.1417
0.5968 0.0391 0.1657
0.6592 0.0268 0.1948
0.7220 0.0143 0.2291
0.7819 0.0032 0.2659
0.8177 0.0005 0.3014
0.8482 -0.0005 0.3374
0.8749 -0.0002 0.3738
0.9000 0.0002 0.4091
0.9240 0.0007 0.4444
0.9458 0.0011 0.4796
0.9647 0.0015 0.5132
0.9798 0.0019 0.5490
0.9905 0.0021 0.5868
0.9972 0.0021 0.6265
1.0010 0.0022 0.6649
1.0028 0.0023 0.7029
1.0034 0.0023 0.7407
1.0031 0.0021 0.7783
1.0016 0.0013 0.8154
0.9994 0.0006 0.8396
-0.0004 0.1630 0.0009
0.0092 0.1676 0.0054
0.0186 0.1724 0.0113
0.0273 0.1774 0.0180
0.0401 0.1811 0.0250
0.0805 0.1769 0.0279
0.1690 0.1601 0.0121
0.2677 0.1324 0.0661
0.3426 0.1134 0.0943
0.3987 0.1001 0.1107
0.4341 0.0921 0.1328
0.4741 0.0833 0.1521
0.5377 0.0677 0.1730
0.6019 0.0520 0.1958
0.6659 0.0364 0.2231
0.7323 0.0192 0.2536
0.7922 0.0052 0.2886
0.8279 0.0013 0.3223
0.8578 0.0000 0.3565
0.8835 0.0001 0.3907
0.9077 0.0005 0.4249
0.9306 0.0010 0.4588
0.9510 0.0013 0.4926
0.9685 0.0017 0.5255
0.9822 0.0022 0.5609
0.9918 0.0025 0.5990
0.9977 0.0027 0.6382
1.0011 0.0030 0.6764
1.0028 0.0034 0.7142
1.0034 0.0039 0.7515
1.0031 0.0039 0.7886
1.0016 0.0032 0.8248
0.9994 0.0023 0.8487
-0.0006 0.1965 0.0005
0.0084 0.2009 0.0048
0.0167 0.2058 0.0103
0.0242 0.2111 0.0164
0.0321 0.2162 0.0229
0.0483 0.2186 0.0286
0.0794 0.2165 0.0331
0.1460 0.2031 0.0380
0.2637 0.1709 0.0671
0.3670 0.1376 0.1312
0.4114 0.1230 0.1671
0.4609 0.1075 0.1885
0.5384 0.0845 0.2039
0.6110 0.0631 0.2243
0.6790 0.0433 0.2498
0.7436 0.0245 0.2802
0.8045 0.0072 0.3130
0.8397 0.0026 0.3456
0.8689 0.0006 0.3776
0.8935 0.0006 0.4102
0.9166 0.0011 0.4427
0.9380 0.0016 0.4753
0.9569 0.0020 0.5079
0.9729 0.0026 0.5406
0.9851 0.0032 0.5754
0.9935 0.0038 0.6134
0.9987 0.0046 0.6520
1.0016 0.0056 0.6900
1.0030 0.0069 0.7274
1.0034 0.0083 0.7645
1.0030 0.0092 0.8010
1.0015 0.0090 0.8354
0.9994 0.0084 0.8578
-0.0008 0.2301 0.0005
0.0083 0.2340 0.0044
0.0168 0.2385 0.0094
0.0241 0.2437 0.0149
0.0316 0.2489 0.0207
0.0413 0.2532 0.0268
0.0565 0.2555 0.0336
0.0825 0.2541 0.0422
0.1311 0.2443 0.0552
0.2455 0.2132 0.0636
0.3874 0.1617 0.1665
0.4272 0.1440 0.2112
0.5141 0.1135 0.2356
0.6039 0.0829 0.2561
0.6829 0.0558 0.2811
0.7532 0.0319 0.3098
0.8174 0.0106 0.3407
0.8526 0.0048 0.3708
0.8806 0.0024 0.4017
0.9046 0.0023 0.4327
0.9261 0.0030 0.4643
0.9459 0.0034 0.4951
0.9633 0.0041 0.5272
0.9773 0.0053 0.5598
0.9878 0.0068 0.5946
0.9948 0.0086 0.6323
0.9994 0.0107 0.6703
1.0020 0.0133 0.7076
1.0033 0.0163 0.7446
1.0036 0.0195 0.7808
1.0030 0.0221 0.8161
1.0016 0.0232 0.8483
0.9995 0.0232 0.8684
-0.0008 0.2640 0.0006
0.0082 0.2675 0.0040
0.0169 0.2715 0.0086
0.0242 0.2764 0.0136
0.0308 0.2817 0.0189
0.0379 0.2867 0.0245
0.0469 0.2909 0.0312
0.0601 0.2934 0.0401
0.0857 0.2909 0.0529
0.1365 0.2780 0.0743
0.2771 0.2349 0.0983
0.4098 0.1817 0.2099
0.4666 0.1560 0.2478
0.5720 0.1162 0.2784
0.6674 0.0799 0.3084
0.7499 0.0485 0.3390
0.8223 0.0214 0.3702
0.8616 0.0126 0.3998
0.8917 0.0089 0.4301
0.9157 0.0083 0.4604
0.9358 0.0090 0.4903
0.9536 0.0102 0.5209
0.9690 0.0115 0.5521
0.9810 0.0133 0.5847
0.9920 0.0123 0.6153
0.9978 0.0152 0.6527
1.0014 0.0187 0.6911
1.0031 0.0232 0.7281
1.0038 0.0285 0.7639
1.0042 0.0345 0.7990
1.0039 0.0404 0.8334
1.0026 0.0441 0.8673
1.0004 0.0456 0.8899
-0.0008 0.2984 -0.0001
0.0064 0.3018 0.0036
0.0133 0.3060 0.0080
0.0192 0.3109 0.0126
0.0245 0.3163 0.0172
0.0296 0.3219 0.0219
0.0352 0.3273 0.0273
0.0422 0.3320 0.0340
0.0526 0.3347 0.0441
0.0723 0.3324 0.0623
0.1345 0.3125 0.0961
0.3176 0.2502 0.1454
0.4255 0.1990 0.2598
0.5319 0.1537 0.2976
0.6451 0.1068 0.3352
0.7449 0.0658 0.3677
0.8296 0.0319 0.4015
0.8748 0.0205 0.4316
0.9059 0.0162 0.4610
0.9285 0.0162 0.4900
0.9472 0.0177 0.5188
0.9632 0.0195 0.5484
0.9766 0.0214 0.5788
0.9870 0.0240 0.6110
0.9944 0.0273 0.6452
0.9991 0.0319 0.6809
1.0020 0.0384 0.7166
1.0038 0.0446 0.7517
1.0045 0.0538 0.7861
1.0046 0.0631 0.8197
1.0040 0.0723 0.8524
1.0026 0.0791 0.8826
1.0007 0.0824 0.9017
-0.0006 0.3334 0.0003
0.0068 0.3362 0.0033
0.0139 0.3396 0.0071
0.0201 0.3439 0.0111
0.0253 0.3487 0.0152
0.0301 0.3540 0.0193
0.0349 0.3595 0.0240
0.0406 0.3645 0.0297
0.0488 0.3683 0.0382
0.0639 0.3683 0.0528
0.0966 0.3601 0.0769
0.1794 0.3311 0.1132
0.3546 0.2666 0.1779
0.4430 0.2205 0.2760
0.5531 0.1724 0.3194
0.6723 0.1223 0.3669
0.7807 0.0780 0.4141
0.8515 0.0562 0.4557
0.9006 0.0448 0.4910
0.9330 0.0409 0.5222
0.9546 0.0415 0.5510
0.9703 0.0439 0.5806
0.9818 0.0470 0.6110
0.9905 0.0506 0.6421
0.9967 0.0554 0.6750
1.0007 0.0615 0.7084
1.0030 0.0691 0.7413
1.0042 0.0784 0.7744
1.0047 0.0889 0.8070
1.0046 0.1003 0.8397
1.0042 0.1102 0.8719
1.0027 0.1207 0.9032
1.0007 0.1265 0.9245
-0.0006 0.3689 -0.0001
0.0051 0.3715 0.0028
0.0106 0.3748 0.0063
0.0155 0.3788 0.0099
0.0199 0.3834 0.0134
0.0239 0.3885 0.0169
0.0277 0.3939 0.0206
0.0318 0.3994 0.0246
0.0371 0.4044 0.0298
0.0453 0.4078 0.0381
0.0606 0.4068 0.0536
0.1016 0.3942 0.0805
0.1735 0.3648 0.1245
0.3095 0.3114 0.1644
0.4299 0.2516 0.2866
0.5497 0.1982 0.3478
0.6972 0.1386 0.4197
0.8132 0.1005 0.4795
0.8912 0.0795 0.5246
0.9382 0.0714 0.5539
0.9644 0.0709 0.5835
0.9794 0.0741 0.6117
0.9889 0.0784 0.6414
0.9955 0.0835 0.6715
0.9999 0.0895 0.7022
1.0027 0.0969 0.7341
1.0041 0.1060 0.7661
1.0046 0.1169 0.7963
1.0048 0.1291 0.8281
1.0044 0.1424 0.8601
1.0032 0.1557 0.8914
1.0014 0.1674 0.9222
0.9990 0.1743 0.9419
-0.0003 0.4052 0.0001
0.0049 0.4072 0.0025
0.0100 0.4098 0.0054
0.0146 0.4132 0.0083
0.0187 0.4172 0.0113
0.0224 0.4218 0.0142
0.0257 0.4267 0.0172
0.0290 0.4320 0.0204
0.0329 0.4371 0.0244
0.0386 0.4415 0.0305
0.0493 0.4431 0.0407
0.0693 0.4396 0.0580
0.1070 0.4272 0.0833
0.1655 0.4019 0.1206
0.2648 0.3582 0.1813
0.4095 0.2973 0.2747
0.5436 0.2411 0.3696
0.6961 0.1894 0.4515
0.8166 0.1534 0.5109
0.8977 0.1334 0.5595
0.9473 0.1250 0.5998
0.9745 0.1242 0.6356
0.9888 0.1274 0.6677
0.9963 0.1326 0.6985
1.0004 0.1392 0.7286
1.0027 0.1468 0.7594
1.0037 0.1554 0.7901
1.0041 0.1650 0.8206
1.0039 0.1753 0.8515
1.0032 0.1861 0.8825
1.0015 0.1971 0.9116
0.9988 0.2076 0.9383
0.9955 0.2143 0.9554
0.0000 0.4421 0.0002
0.0046 0.4434 0.0020
0.0095 0.4451 0.0042
0.0120 0.4484 0.0066
0.0158 0.4518 0.0089
0.0193 0.4556 0.0112
0.0226 0.4600 0.0135
0.0257 0.4647 0.0160
0.0286 0.4697 0.0189
0.0319 0.4747 0.0224
0.0369 0.4788 0.0279
0.0467 0.4802 0.0378
0.0614 0.4782 0.0517
0.0881 0.4690 0.0759
0.1319 0.4488 0.1145
0.2209 0.4103 0.1845
0.3700 0.3507 0.2958
0.5468 0.2904 0.4013
0.7174 0.2375 0.4930
0.8417 0.2035 0.5595
0.9211 0.1856 0.6149
0.9658 0.1792 0.6592
0.9876 0.1800 0.6959
0.9972 0.1846 0.7272
1.0012 0.1911 0.7569
1.0027 0.1986 0.7868
1.0033 0.2064 0.8170
1.0032 0.2143 0.8464
1.0030 0.2221 0.8761
1.0022 0.2300 0.9055
1.0003 0.2383 0.9321
0.9966 0.2471 0.9567
0.9915 0.2532 0.9724
0.0004 0.4793 0.0002
0.0032 0.4803 0.0016
0.0065 0.4816 0.0032
0.0098 0.4837 0.0049
0.0131 0.4863 0.0065
0.0162 0.4895 0.0081
0.0148 0.4945 0.0097
0.0170 0.4987 0.0113
0.0189 0.5034 0.0129
0.0208 0.5085 0.0147
0.0233 0.5135 0.0171
0.0274 0.5178 0.0209
0.0347 0.5203 0.0275
0.0473 0.5196 0.0391
0.0701 0.5134 0.0607
0.1156 0.4950 0.1033
0.2127 0.4573 0.1883
0.3637 0.4060 0.3038
0.5509 0.3472 0.4272
0.7313 0.2949 0.5354
0.8617 0.2610 0.6200
0.9414 0.2438 0.6811
0.9805 0.2387 0.7265
0.9960 0.2406 0.7607
1.0009 0.2458 0.7905
1.0022 0.2522 0.8192
1.0024 0.2583 0.8486
1.0024 0.2632 0.8773
1.0018 0.2666 0.9050
1.0011 0.2691 0.9273
0.9994 0.2717 0.9498
0.9958 0.2760 0.9670
0.9906 0.2794 0.9806
0.0002 0.5170 -0.0001
0.0017 0.5175 0.0007
0.0034 0.5185 0.0016
0.0050 0.5202 0.0025
0.0066 0.5225 0.0034
0.0083 0.5251 0.0042
0.0101 0.5282 0.0050
0.0117 0.5318 0.0058
0.0134 0.5357 0.0067
0.0136 0.5406 0.0076
0.0154 0.5453 0.0089
0.0176 0.5500 0.0109
0.0211 0.5542 0.0143
0.0278 0.5568 0.0207
0.0412 0.5563 0.0341
0.0692 0.5496 0.0616
0.1260 0.5301 0.1144
0.2292 0.4974 0.2049
0.3792 0.4513 0.3257
0.5597 0.3985 0.4568
0.7338 0.3503 0.5819
0.8603 0.3184 0.6766
0.9383 0.3011 0.7436
0.9777 0.2946 0.7874
0.9940 0.2943 0.8228
0.9994 0.2968 0.8536
1.0009 0.2997 0.8817
1.0009 0.3010 0.9103
1.0005 0.3002 0.9269
0.9982 0.2978 0.9420
0.9971 0.2949 0.9480
0.9947 0.2929 0.9630
0.9932 0.2924 0.9625
-0.0002 0.5543 -0.0007
0.0004 0.5543 -0.0006
0.0011 0.5547 -0.0004
0.0020 0.5558 -0.0001
0.0028 0.5574 0.0001
0.0036 0.5595 0.0003
0.0043 0.5620 0.0004
0.0049 0.5650 0.0005
0.0053 0.5685 0.0006
0.0057 0.5725 0.0008
0.0061 0.5769 0.0011
0.0073 0.5815 0.0020
0.0075 0.5865 0.0028
0.0109 0.5905 0.0061
0.0175 0.5931 0.0132
0.0326 0.5924 0.0290
0.0657 0.5852 0.0617
0.1300 0.5678 0.1220
0.2386 0.5364 0.2192
0.3931 0.4919 0.3492
0.5710 0.4418 0.4946
0.7379 0.3962 0.6254
0.8566 0.3658 0.7218
0.9311 0.3478 0.7921
0.9712 0.3387 0.8430
0.9898 0.3350 0.8828
0.9974 0.3337 0.9151
0.9997 0.3319 0.9412
1.0001 0.3284 0.9459
0.9978 0.3226 0.9496
0.9961 0.3156 0.9489
0.9967 0.3090 0.9497
0.9967 0.3050 0.9563
-0.0012 0.5871 -0.0018
-0.0011 0.5872 -0.0018
-0.0009 0.5876 -0.0017
-0.0005 0.5885 -0.0017
-0.0002 0.5899 -0.0017
0.0001 0.5915 -0.0016
0.0005 0.5936 -0.0016
0.0008 0.5961 -0.0016
0.0009 0.5992 -0.0016
0.0011 0.6028 -0.0016
0.0013 0.6068 -0.0015
0.0014 0.6113 -0.0014
0.0019 0.6159 -0.0007
0.0030 0.6203 0.0006
0.0065 0.6237 0.0048
0.0090 0.6280 0.0066
0.0245 0.6273 0.0224
0.0596 0.6205 0.0577
0.1324 0.6013 0.1294
0.2509 0.5676 0.2364
0.4053 0.5236 0.3746
0.5738 0.4761 0.5204
0.7264 0.4345 0.6489
0.8385 0.4040 0.7523
0.9132 0.3835 0.8220
0.9590 0.3701 0.8751
0.9842 0.3620 0.9136
0.9955 0.3561 0.9445
0.9992 0.3505 0.9556
0.9995 0.3436 0.9536
0.9979 0.3350 0.9554
0.9972 0.3267 0.9583
0.9969 0.3213 0.9656
-0.0021 0.6186 -0.0028
-0.0023 0.6187 -0.0028
-0.0024 0.6190 -0.0028
-0.0023 0.6198 -0.0028
-0.0022 0.6207 -0.0028
-0.0021 0.6218 -0.0028
-0.0020 0.6231 -0.0028
-0.0019 0.6249 -0.0028
-0.0018 0.6274 -0.0028
-0.0018 0.6305 -0.0028
-0.0018 0.6342 -0.0029
-0.0018 0.6382 -0.0028
-0.0017 0.6425 -0.0026
-0.0013 0.6465 -0.0020
-0.0003 0.6499 -0.0010
0.0023 0.6524 0.0019
0.0094 0.6533 0.0096
0.0294 0.6502 0.0313
0.0566 0.6475 0.0541
0.1309 0.6282 0.1274
0.2515 0.5938 0.2469
0.4040 0.5495 0.3924
0.5545 0.5043 0.5238
0.6909 0.4642 0.6409
0.7989 0.4332 0.7305
0.8787 0.4103 0.8004
0.9346 0.3931 0.8637
0.9692 0.3813 0.9097
0.9873 0.3722 0.9411
0.9952 0.3643 0.9557
0.9970 0.3567 0.9616
0.9961 0.3492 0.9705
0.9944 0.3445 0.9762
-0.0028 0.6476 -0.0036
-0.0031 0.6472 -0.0036
-0.0034 0.6471 -0.0036
-0.0034 0.6474 -0.0036
-0.0034 0.6477 -0.0036
-0.0033 0.6478 -0.0036
-0.0033 0.6480 -0.0036
-0.0032 0.6485 -0.0036
-0.0032 0.6498 -0.0036
-0.0032 0.6520 -0.0036
-0.0034 0.6551 -0.0038
-0.0035 0.6586 -0.0039
-0.0036 0.6623 -0.0039
-0.0036 0.6657 -0.0039
-0.0031 0.6681 -0.0033
-0.0020 0.6695 -0.0019
0.0014 0.6698 0.0025
0.0091 0.6694 0.0109
0.0283 0.6662 0.0311
0.0687 0.6569 0.0732
0.1436 0.6358 0.1511
0.2303 0.6143 0.2292
0.3687 0.5720 0.3653
0.5113 0.5292 0.4996
0.6478 0.4890 0.6155
0.7683 0.4545 0.7176
0.8627 0.4283 0.7999
0.9300 0.4087 0.8744
0.9702 0.3954 0.9277
0.9898 0.3864 0.9565
0.9967 0.3794 0.9731
0.9970 0.3733 0.9820
0.9942 0.3694 0.9884
-0.0043 0.6738 -0.0049
-0.0045 0.6729 -0.0048
-0.0046 0.6724 -0.0048
-0.0047 0.6725 -0.0048
-0.0047 0.6724 -0.0048
-0.0046 0.6715 -0.0047
-0.0045 0.6701 -0.0047
-0.0044 0.6688 -0.0046
-0.0044 0.6684 -0.0046
-0.0043 0.6693 -0.0046
-0.0045 0.6714 -0.0047
-0.0046 0.6744 -0.0049
-0.0048 0.6777 -0.0050
-0.0048 0.6807 -0.0051
-0.0047 0.6826 -0.0051
-0.0045 0.6830 -0.0049
-0.0040 0.6823 -0.0044
-0.0021 0.6814 -0.0025
0.0043 0.6803 0.0038
0.0206 0.6774 0.0203
0.0579 0.6677 0.0596
0.1215 0.6490 0.1252
0.2134 0.6207 0.2161
0.3270 0.5866 0.3215
0.4359 0.5546 0.4224
0.5800 0.5150 0.5549
0.7326 0.4740 0.6990
0.8530 0.4435 0.8165
0.9351 0.4228 0.9036
0.9784 0.4111 0.9564
0.9957 0.4049 0.9841
0.9994 0.4014 0.9945
0.9979 0.3995 0.9987
-0.0048 0.6944 -0.0051
-0.0049 0.6931 -0.0051
-0.0050 0.6922 -0.0051
-0.0050 0.6922 -0.0051
-0.0050 0.6918 -0.0051
-0.0050 0.6901 -0.0051
-0.0050 0.6869 -0.0051
-0.0050 0.6829 -0.0051
-0.0049 0.6797 -0.0051
-0.0048 0.6784 -0.0050
-0.0048 0.6792 -0.0051
-0.0049 0.6815 -0.0051
-0.0049 0.6844 -0.0051
-0.0049 0.6873 -0.0051
-0.0050 0.6892 -0.0052
-0.0050 0.6893 -0.0052
-0.0049 0.6874 -0.0050
-0.0043 0.6847 -0.0045
-0.0025 0.6826 -0.0026
0.0031 0.6813 0.0028
0.0162 0.6789 0.0158
0.0427 0.6724 0.0418
0.0885 0.6590 0.0863
0.1606 0.6375 0.1547
0.2611 0.6093 0.2502
0.3942 0.5748 0.3798
0.5498 0.5364 0.5298
0.7163 0.4957 0.6992
0.8461 0.4671 0.8288
0.9313 0.4494 0.9184
0.9777 0.4400 0.9705
0.9972 0.4356 0.9944
1.0045 0.4339 1.0033
-0.0048 0.7027 -0.0051
-0.0049 0.7014 -0.0051
-0.0050 0.7006 -0.0051
-0.0050 0.7003 -0.0051
-0.0050 0.6998 -0.0051
-0.0050 0.6980 -0.0052
-0.0051 0.6943 -0.0052
-0.0050 0.6890 -0.0052
-0.0050 0.6838 -0.0051
-0.0049 0.6804 -0.0051
-0.0049 0.6794 -0.0051
-0.0049 0.6806 -0.0051
-0.0050 0.6830 -0.0051
-0.0050 0.6857 -0.0052
-0.0050 0.6878 -0.0052
-0.0050 0.6888 -0.0052
-0.0050 0.6880 -0.0051
-0.0047 0.6859 -0.0048
-0.0038 0.6838 -0.0038
-0.0014 0.6827 -0.0010
0.0045 0.6822 0.0052
0.0162 0.6808 0.0173
0.0380 0.6764 0.0387
0.0762 0.6673 0.0751
0.1394 0.6520 0.1358
0.2385 0.6291 0.2325
0.3795 0.5969 0.3709
0.5506 0.5590 0.5396
0.7225 0.5222 0.7096
0.8504 0.4981 0.8374
0.9401 0.4820 0.9351
0.9829 0.4753 0.9798
1.0090 0.4723 1.0019
-0.0050 0.7020 -0.0052
-0.0050 0.7017 -0.0052
-0.0050 0.7018 -0.0052
-0.0050 0.7018 -0.0052
-0.0050 0.7015 -0.0052
-0.0050 0.7003 -0.0052
-0.0050 0.6972 -0.0052
-0.0051 0.6924 -0.0052
-0.0050 0.6870 -0.0052
-0.0049 0.6828 -0.0052
-0.0049 0.6812 -0.0052
-0.0049 0.6818 -0.0052
-0.0050 0.6836 -0.0052
-0.0049 0.6860 -0.0052
-0.0049 0.6885 -0.0052
-0.0048 0.6905 -0.0052
-0.0046 0.6911 -0.0051
-0.0043 0.6907 -0.0048
-0.0037 0.6902 -0.0042
-0.0027 0.6901 -0.0028
-0.0003 0.6910 -0.0000
0.0049 0.6922 0.0057
0.0155 0.6927 0.0161
0.0356 0.6912 0.0357
0.0731 0.6859 0.0726
0.1397 0.6744 0.1389
0.2496 0.6530 0.2471
0.4022 0.6228 0.3953
0.5762 0.5897 0.5600
0.7385 0.5604 0.7144
0.8584 0.5415 0.8330
0.9410 0.5301 0.9173
1.0053 0.5247 0.9633
-0.0051 0.6989 -0.0052
-0.0051 0.6996 -0.0052
-0.0051 0.7006 -0.0052
-0.0051 0.7011 -0.0052
-0.0050 0.7012 -0.0052
-0.0050 0.7009 -0.0052
-0.0050 0.6991 -0.0052
-0.0050 0.6956 -0.0052
-0.0050 0.6911 -0.0052
-0.0049 0.6872 -0.0052
-0.0049 0.6851 -0.0052
-0.0049 0.6849 -0.0052
-0.0049 0.6865 -0.0052
-0.0049 0.6889 -0.0052
-0.0047 0.6916 -0.0051
-0.0043 0.6942 -0.0051
-0.0039 0.6962 -0.0049
-0.0033 0.6976 -0.0046
-0.0028 0.6986 -0.0042
-0.0023 0.6998 -0.0039
-0.0018 0.7021 -0.0035
-0.0005 0.7053 -0.0027
0.0032 0.7092 -0.0002
0.0123 0.7127 0.0063
0.0305 0.7153 0.0216
0.0666 0.7145 0.0555
0.1350 0.7070 0.1232
0.2527 0.6888 0.2397
0.4123 0.6636 0.3949
0.5884 0.6361 0.5655
0.7454 0.6149 0.7175
0.8742 0.5984 0.8541
0.9951 0.5871 0.9402
-0.0052 0.6993 -0.0052
-0.0051 0.7009 -0.0052
-0.0050 0.7027 -0.0052
-0.0050 0.7025 -0.0052
-0.0048 0.7036 -0.0051
-0.0046 0.7040 -0.0051
-0.0044 0.7038 -0.0050
-0.0042 0.7027 -0.0049
-0.0041 0.7008 -0.0048
-0.0040 0.6989 -0.0048
-0.0039 0.6978 -0.0048
-0.0038 0.6980 -0.0047
-0.0037 0.6995 -0.0047
-0.0036 0.7018 -0.0046
-0.0033 0.7045 -0.0045
-0.0023 0.7075 -0.0042
-0.0006 0.7107 -0.0034
0.0019 0.7140 -0.0021
0.0044 0.7174 -0.0002
0.0063 0.7209 0.0015
0.0077 0.7246 0.0025
0.0092 0.7289 0.0034
0.0128 0.7337 0.0057
0.0225 0.7388 0.0117
0.0407 0.7442 0.0242
0.0696 0.7492 0.0485
0.1158 0.7515 0.0932
0.1905 0.7486 0.1664
0.3044 0.7382 0.2729
0.4625 0.7197 0.3947
0.6246 0.7053 0.5197
0.8130 0.6825 0.6629
1.0032 0.6685 0.7652
-0.0051 0.7087 -0.0051
-0.0048 0.7103 -0.0050
-0.0045 0.7117 -0.0050
-0.0044 0.7127 -0.0049
-0.0041 0.7136 -0.0048
-0.0034 0.7151 -0.0046
-0.0029 0.7146 -0.0043
-0.0019 0.7162 -0.0038
-0.0012 0.7167 -0.0033
-0.0004 0.7172 -0.0029
0.0010 0.7182 -0.0022
0.0016 0.7193 -0.0018
0.0022 0.7211 -0.0015
0.0029 0.7235 -0.0012
0.0038 0.7264 -0.0008
0.0054 0.7298 -0.0000
0.0093 0.7337 0.0018
0.0162 0.7383 0.0048
0.0252 0.7432 0.0091
0.0337 0.7483 0.0130
0.0369 0.7538 0.0154
0.0435 0.7593 0.0151
0.0490 0.7649 0.0172
0.0601 0.7716 0.0231
0.0811 0.7790 0.0338
0.1393 0.7805 0.0411
0.1756 0.7892 0.0713
0.2311 0.7943 0.1170
0.3110 0.7951 0.1857
0.4326 0.7889 0.2708
0.6136 0.7704 0.3635
0.7947 0.7600 0.4435
1.0020 0.7468 0.4989
-0.0046 0.7283 -0.0045
-0.0034 0.7300 -0.0043
-0.0024 0.7317 -0.0041
-0.0016 0.7329 -0.0038
-0.0004 0.7346 -0.0032
0.0011 0.7362 -0.0025
0.0033 0.7380 -0.0015
0.0059 0.7404 -0.0001
0.0097 0.7436 0.0015
