deuteranomaly_emotive_to_.4.cube
TITLE "daltoLAB Deuteranomaly Emotive Naturalized to .4"
# Alessandro Bellia
LUT_3D_SIZE 5
0.0000 0.0000 0.0000
0.3341 -0.0016 0.0026
0.7613 -0.0022 0.2150
0.9748 0.0021 0.5253
0.9998 0.0004 0.8207
-0.0011 0.2675 0.0002
0.0862 0.2899 0.0537
0.8221 0.0214 0.3701
0.9912 0.0127 0.6167
1.0006 0.0461 0.8901
0.0000 0.5544 -0.0006
0.0056 0.5683 0.0007
0.0562 0.5891 0.0516
0.9743 0.3403 0.8460
0.9974 0.3066 0.9627
-0.0048 0.6989 -0.0049
-0.0044 0.6920 -0.0047
-0.0033 0.6980 -0.0045
0.0389 0.7155 0.0317
0.9929 0.5859 0.9307
0.0050 1.0063 0.0027
0.1909 0.9646 0.0070
0.4677 0.9915 -0.0263
0.7392 1.0005 -0.0113
1.0006 1.0013 0.0037
0.2020 -0.0187 0.1535
0.3427 0.0027 0.1917
0.7677 0.0018 0.1611
0.9881 0.0023 0.2131
0.9979 -0.0001 0.5342
0.0026 0.2717 0.2159
0.2500 0.2500 0.2500
0.6268 0.1704 0.2016
0.9876 0.0166 0.3435
0.9982 0.0252 0.6311
-0.0013 0.5586 0.2431
0.1609 0.5218 0.3107
0.3312 0.5195 0.3888
0.9530 0.3101 0.6086
1.0010 0.2486 0.7584
-0.0032 0.7049 0.1213
0.0031 0.6947 0.1064
0.0242 0.7066 0.0968
0.1257 0.7100 0.1312
0.9811 0.5692 0.9048
0.0074 0.9918 0.1927
0.1916 1.0014 0.1905
0.4224 0.9832 0.1918
0.7075 0.9923 0.2245
1.0000 0.9993 0.2474
0.4486 0.0001 0.5361
0.5559 -0.0018 0.5431
0.7828 -0.0026 0.5715
0.9839 0.0010 0.5820
1.0020 0.0135 0.3477
0.4612 0.1019 0.4487
0.4650 0.1658 0.4126
0.6345 0.1733 0.4830
0.9789 0.0224 0.5674
0.9829 0.0280 0.2417
-0.0020 0.5806 0.5001
0.1719 0.5338 0.4747
0.5000 0.5000 0.5000
0.8177 0.4259 0.4320
0.9970 0.1987 0.4345
-0.0045 0.6892 0.3807
0.0094 0.6988 0.3888
0.3316 0.7331 0.5387
0.5379 0.7296 0.6169
0.9682 0.5579 0.7090
0.0070 1.0016 0.4823
0.1990 1.0055 0.4620
0.4158 0.9891 0.4539
0.7113 0.9924 0.4819
1.0000 0.9994 0.5002
0.5284 0.0018 0.8150
0.6124 0.0020 0.8223
0.8012 0.0002 0.8400
0.9878 0.0032 0.8511
1.0038 0.0022 0.8815
0.6744 0.0086 0.8326
0.7322 0.0160 0.8358
0.8676 0.0265 0.8399
0.9900 0.0357 0.8651
1.0039 0.0519 0.8905
0.2515 0.5294 0.6718
0.4630 0.4681 0.6495
0.7281 0.4279 0.6847
0.8370 0.4304 0.7515
0.9693 0.2260 0.7573
-0.0050 0.7056 0.6272
0.0067 0.7146 0.6304
0.3464 0.7448 0.6839
0.7500 0.7500 0.7500
0.9635 0.7074 0.6734
0.0049 1.0060 0.7405
0.1964 1.0024 0.7225
0.4323 1.0016 0.7210
0.7392 0.9976 0.7552
0.9998 0.9995 0.7553
0.5713 0.0031 1.0011
0.6412 0.0044 1.0022
0.8069 0.0041 1.0030
0.9936 0.0006 1.0019
1.0045 0.0023 1.0045
0.6969 0.0103 1.0016
0.7512 0.0138 1.0028
0.8874 0.0216 1.0039
1.0014 0.0449 1.0033
1.0042 0.0817 1.0047
0.9002 0.3424 0.9893
0.9382 0.3376 0.9926
0.9884 0.3305 0.9975
0.9948 0.3018 0.9994
1.0039 0.2219 1.0036
0.0224 0.7096 0.8414
0.0479 0.7141 0.8352
0.3363 0.6765 0.7891
0.9287 0.6580 0.9541
1.0009 0.7041 0.9991
0.0050 1.0009 0.9971
0.2188 0.9997 0.9963
0.4591 1.0015 0.9990
0.7469 0.9991 0.9998
1.0000 1.0000 1.0000
