deuteranomaly_emotive_to_.4.cube
TITLE "daltoLAB Deuteranomaly Emotive Naturalized to .4"
# Alessandro Bellia
LUT_3D_SIZE 33
0.0000 0.0000 0.0000
0.0321 -0.0004 0.0033
0.0659 -0.0008 0.0061
0.1036 -0.0009 0.0059
0.1447 -0.0010 0.0053
0.1890 -0.0011 0.0047
0.2357 -0.0013 0.0038
0.2839 -0.0015 0.0031
0.3341 -0.0016 0.0026
0.3859 -0.0013 0.0026
0.4382 0.0003 0.0074
0.4940 0.0018 0.0232
0.5550 0.0017 0.0492
0.6194 -0.0005 0.0870
0.6701 -0.0022 0.1291
0.7188 -0.0028 0.1727
0.7613 -0.0022 0.2150
0.7968 -0.0014 0.2552
0.8277 -0.0008 0.2960
0.8560 -0.0003 0.3362
0.8833 0.0004 0.3746
0.9095 0.0008 0.4132
0.9346 0.0012 0.4524
0.9567 0.0016 0.4894
0.9748 0.0021 0.5253
0.9880 0.0024 0.5625
0.9963 0.0024 0.6021
1.0008 0.0024 0.6418
1.0029 0.0023 0.6803
1.0036 0.0022 0.7196
1.0033 0.0019 0.7588
1.0020 0.0012 0.7962
0.9998 0.0004 0.8207
0.0099 0.0290 -0.0023
0.0328 0.0309 0.0018
0.0725 0.0280 0.0105
0.1151 0.0249 0.0177
0.1591 0.0226 0.0206
0.2036 0.0207 0.0203
0.2498 0.0188 0.0183
0.2973 0.0170 0.0164
0.3464 0.0152 0.0149
0.3958 0.0138 0.0145
0.4426 0.0139 0.0206
0.4971 0.0120 0.0375
0.5578 0.0088 0.0637
0.6210 0.0044 0.1003
0.6714 0.0017 0.1387
0.7199 -0.0004 0.1807
0.7625 -0.0013 0.2216
0.7986 -0.0012 0.2613
0.8298 -0.0011 0.3013
0.8582 -0.0006 0.3408
0.8851 0.0001 0.3795
0.9109 0.0005 0.4179
0.9355 0.0010 0.4560
0.9571 0.0013 0.4920
0.9746 0.0017 0.5283
0.9875 0.0020 0.5658
0.9958 0.0021 0.6056
1.0005 0.0021 0.6446
1.0027 0.0020 0.6836
1.0034 0.0019 0.7227
1.0031 0.0016 0.7613
1.0017 0.0008 0.7985
0.9996 0.0002 0.8226
0.0047 0.0627 -0.0007
0.0199 0.0665 0.0042
0.0487 0.0669 0.0064
0.1096 0.0573 0.0199
0.1632 0.0499 0.0364
0.2141 0.0444 0.0424
0.2633 0.0400 0.0402
0.3104 0.0366 0.0348
0.3595 0.0327 0.0317
0.4061 0.0297 0.0336
0.4483 0.0281 0.0421
0.5026 0.0233 0.0598
0.5634 0.0169 0.0855
0.6255 0.0102 0.1181
0.6748 0.0060 0.1542
0.7231 0.0024 0.1935
0.7659 0.0000 0.2328
0.8025 -0.0008 0.2717
0.8341 -0.0010 0.3102
0.8624 -0.0006 0.3489
0.8888 -0.0001 0.3866
0.9139 0.0004 0.4243
0.9375 0.0009 0.4614
0.9581 0.0012 0.4969
0.9749 0.0015 0.5332
0.9874 0.0018 0.5711
0.9955 0.0019 0.6104
1.0002 0.0019 0.6494
1.0024 0.0019 0.6883
1.0032 0.0018 0.7270
1.0029 0.0014 0.7650
1.0015 0.0007 0.8013
0.9994 0.0000 0.8243
0.0008 0.0968 0.0005
0.0146 0.1006 0.0055
0.0312 0.1039 0.0108
0.0660 0.1023 0.0135
0.1359 0.0900 0.0244
0.2016 0.0771 0.0497
0.2607 0.0675 0.0585
0.3187 0.0587 0.0589
0.3671 0.0529 0.0573
0.4163 0.0466 0.0552
0.4538 0.0437 0.0678
0.5101 0.0354 0.0843
0.5710 0.0260 0.1105
0.6328 0.0167 0.1394
0.6813 0.0110 0.1737
0.7292 0.0057 0.2106
0.7719 0.0019 0.2478
0.8082 0.0002 0.2849
0.8399 -0.0007 0.3226
0.8680 -0.0005 0.3602
0.8938 -0.0000 0.3967
0.9183 0.0004 0.4331
0.9409 0.0009 0.4695
0.9605 0.0012 0.5042
0.9763 0.0015 0.5402
0.9879 0.0018 0.5789
0.9956 0.0019 0.6179
1.0000 0.0019 0.6563
1.0023 0.0019 0.6944
1.0031 0.0019 0.7329
1.0028 0.0015 0.7707
1.0014 0.0008 0.8063
0.9993 0.0001 0.8291
0.0001 0.1306 0.0014
0.0117 0.1346 0.0057
0.0241 0.1387 0.0117
0.0413 0.1414 0.0177
0.0713 0.1405 0.0220
0.1491 0.1265 0.0172
0.2333 0.1058 0.0545
0.3022 0.0911 0.0688
0.3675 0.0775 0.0761
0.4115 0.0693 0.0886
0.4552 0.0617 0.1002
0.5156 0.0494 0.1171
0.5815 0.0348 0.1357
0.6448 0.0221 0.1630
0.6932 0.0150 0.1944
0.7397 0.0083 0.2297
0.7814 0.0037 0.2657
0.8173 0.0008 0.3013
0.8480 -0.0004 0.3375
0.8750 -0.0002 0.3739
0.9000 0.0001 0.4093
0.9237 0.0006 0.4446
0.9453 0.0010 0.4800
0.9640 0.0013 0.5137
0.9788 0.0017 0.5494
0.9895 0.0020 0.5881
0.9965 0.0022 0.6270
1.0004 0.0023 0.6652
1.0025 0.0025 0.7029
1.0032 0.0025 0.7410
1.0029 0.0023 0.7786
1.0014 0.0016 0.8142
0.9993 0.0008 0.8370
-0.0004 0.1647 0.0011
0.0098 0.1687 0.0053
0.0203 0.1728 0.0111
0.0318 0.1768 0.0175
0.0495 0.1789 0.0239
0.0939 0.1733 0.0268
0.1729 0.1582 0.0193
0.2585 0.1352 0.0596
0.3363 0.1145 0.0894
0.3971 0.0987 0.1096
0.4377 0.0881 0.1326
0.5086 0.0693 0.1495
0.5819 0.0496 0.1693
0.6511 0.0316 0.1933
0.7017 0.0214 0.2227
0.7527 0.0106 0.2532
0.7937 0.0045 0.2874
0.8288 0.0008 0.3214
0.8580 -0.0003 0.3555
0.8835 -0.0001 0.3902
0.9075 0.0003 0.4245
0.9304 0.0008 0.4586
0.9511 0.0012 0.4923
0.9688 0.0016 0.5247
0.9826 0.0020 0.5604
0.9923 0.0024 0.5985
0.9982 0.0026 0.6382
1.0014 0.0029 0.6761
1.0030 0.0033 0.7139
1.0035 0.0038 0.7511
1.0032 0.0039 0.7882
1.0017 0.0032 0.8246
0.9995 0.0023 0.8487
-0.0007 0.1988 0.0004
0.0082 0.2028 0.0045
0.0164 0.2074 0.0099
0.0238 0.2124 0.0159
0.0318 0.2172 0.0226
0.0483 0.2192 0.0285
0.0799 0.2164 0.0339
0.1467 0.2020 0.0423
0.2572 0.1707 0.0740
0.3564 0.1379 0.1318
0.4034 0.1211 0.1643
0.4946 0.0915 0.1838
0.5839 0.0630 0.2000
0.6625 0.0386 0.2222
0.7168 0.0253 0.2498
0.7639 0.0149 0.2808
0.8046 0.0071 0.3125
0.8399 0.0024 0.3452
0.8692 0.0004 0.3773
0.8935 0.0005 0.4099
0.9164 0.0010 0.4424
0.9378 0.0015 0.4751
0.9568 0.0019 0.5076
0.9728 0.0024 0.5403
0.9851 0.0031 0.5751
0.9936 0.0038 0.6133
0.9988 0.0045 0.6518
1.0016 0.0055 0.6899
1.0031 0.0068 0.7273
1.0035 0.0083 0.7644
1.0031 0.0093 0.8009
1.0016 0.0091 0.8354
0.9994 0.0084 0.8578
-0.0008 0.2330 0.0005
0.0080 0.2364 0.0041
0.0163 0.2405 0.0089
0.0234 0.2454 0.0142
0.0308 0.2503 0.0199
0.0406 0.2542 0.0260
0.0561 0.2560 0.0333
0.0833 0.2535 0.0433
0.1332 0.2420 0.0602
0.2388 0.2109 0.0817
0.3670 0.1631 0.1674
0.4394 0.1337 0.2063
0.5539 0.0919 0.2327
0.6545 0.0561 0.2550
0.7215 0.0354 0.2818
0.7740 0.0208 0.3109
0.8172 0.0106 0.3404
0.8527 0.0047 0.3706
0.8808 0.0023 0.4016
0.9045 0.0021 0.4325
0.9259 0.0029 0.4641
0.9457 0.0033 0.4949
0.9631 0.0039 0.5270
0.9773 0.0048 0.5592
0.9881 0.0060 0.5938
0.9953 0.0073 0.6312
0.9997 0.0093 0.6696
1.0022 0.0118 0.7069
1.0034 0.0147 0.7440
1.0038 0.0180 0.7800
1.0033 0.0208 0.8155
1.0019 0.0221 0.8494
0.9997 0.0223 0.8714
-0.0011 0.2675 0.0002
0.0073 0.2706 0.0035
0.0157 0.2742 0.0078
0.0226 0.2787 0.0125
0.0289 0.2837 0.0174
0.0358 0.2885 0.0228
0.0447 0.2923 0.0295
0.0585 0.2940 0.0389
0.0862 0.2899 0.0537
0.1405 0.2740 0.0818
0.2661 0.2318 0.1209
0.3823 0.1831 0.2077
0.4950 0.1376 0.2431
0.6154 0.0903 0.2771
0.7039 0.0588 0.3097
0.7707 0.0365 0.3405
0.8221 0.0214 0.3701
0.8618 0.0125 0.3997
0.8918 0.0087 0.4300
0.9155 0.0082 0.4603
0.9356 0.0088 0.4901
0.9534 0.0100 0.5207
0.9689 0.0113 0.5520
0.9810 0.0133 0.5848
0.9912 0.0127 0.6167
0.9972 0.0158 0.6540
1.0010 0.0196 0.6920
1.0029 0.0240 0.7286
1.0039 0.0295 0.7648
1.0045 0.0355 0.7998
1.0042 0.0414 0.8340
1.0027 0.0450 0.8676
1.0006 0.0461 0.8901
-0.0012 0.3026 -0.0004
0.0056 0.3054 0.0028
0.0121 0.3091 0.0067
0.0176 0.3137 0.0109
0.0224 0.3188 0.0150
0.0271 0.3240 0.0193
0.0324 0.3291 0.0244
0.0394 0.3334 0.0311
0.0506 0.3351 0.0420
0.0731 0.3308 0.0631
0.1415 0.3063 0.1059
0.2981 0.2474 0.1687
0.4226 0.1902 0.2526
0.5664 0.1296 0.2958
0.6778 0.0854 0.3368
0.7654 0.0529 0.3696
0.8294 0.0317 0.4014
0.8748 0.0203 0.4315
0.9058 0.0161 0.4610
0.9283 0.0160 0.4898
0.9469 0.0176 0.5186
0.9631 0.0195 0.5483
0.9765 0.0213 0.5787
0.9869 0.0240 0.6112
0.9944 0.0274 0.6456
0.9991 0.0321 0.6814
1.0022 0.0387 0.7172
1.0041 0.0444 0.7519
1.0048 0.0534 0.7863
1.0049 0.0630 0.8198
1.0044 0.0723 0.8526
1.0029 0.0790 0.8838
1.0009 0.0824 0.9019
-0.0009 0.3385 0.0000
0.0060 0.3406 0.0025
0.0127 0.3433 0.0058
0.0178 0.3473 0.0093
0.0224 0.3518 0.0127
0.0265 0.3569 0.0162
0.0305 0.3622 0.0202
0.0354 0.3672 0.0253
0.0437 0.3704 0.0333
0.0586 0.3695 0.0487
0.0996 0.3569 0.0791
0.1872 0.3226 0.1280
0.3274 0.2639 0.2000
0.4475 0.2077 0.2675
0.5746 0.1552 0.3195
0.6916 0.1090 0.3704
0.7814 0.0774 0.4144
0.8516 0.0559 0.4557
0.9007 0.0446 0.4910
0.9333 0.0405 0.5223
0.9549 0.0411 0.5512
0.9706 0.0434 0.5806
0.9822 0.0464 0.6116
0.9910 0.0502 0.6429
0.9972 0.0550 0.6757
1.0010 0.0609 0.7096
1.0033 0.0684 0.7428
1.0046 0.0779 0.7748
1.0050 0.0884 0.8072
1.0047 0.1004 0.8393
1.0042 0.1102 0.8719
1.0027 0.1207 0.9033
1.0008 0.1265 0.9246
-0.0008 0.3752 -0.0003
0.0043 0.3769 0.0019
0.0091 0.3795 0.0047
0.0133 0.3830 0.0076
0.0170 0.3871 0.0104
0.0202 0.3918 0.0132
0.0234 0.3970 0.0161
0.0270 0.4023 0.0196
0.0319 0.4069 0.0245
0.0405 0.4094 0.0331
0.0578 0.4065 0.0508
0.1042 0.3900 0.0835
0.1834 0.3540 0.1397
0.2988 0.2999 0.2113
0.4213 0.2456 0.2800
0.5570 0.1905 0.3465
0.6971 0.1386 0.4197
0.8132 0.1006 0.4795
0.8916 0.0794 0.5248
0.9385 0.0715 0.5542
0.9648 0.0711 0.5838
0.9798 0.0742 0.6120
0.9893 0.0785 0.6417
0.9959 0.0836 0.6718
1.0002 0.0896 0.7024
1.0027 0.0969 0.7342
1.0041 0.1060 0.7662
1.0046 0.1173 0.7963
1.0048 0.1302 0.8280
1.0044 0.1434 0.8602
1.0033 0.1564 0.8916
1.0014 0.1676 0.9222
0.9990 0.1744 0.9419
-0.0001 0.4130 0.0003
0.0043 0.4139 0.0018
0.0089 0.4155 0.0039
0.0131 0.4180 0.0060
0.0168 0.4212 0.0081
0.0198 0.4252 0.0102
0.0224 0.4298 0.0123
0.0250 0.4347 0.0147
0.0283 0.4394 0.0181
0.0340 0.4430 0.0242
0.0458 0.4432 0.0359
0.0693 0.4368 0.0570
0.1131 0.4197 0.0892
0.1788 0.3885 0.1372
0.2683 0.3487 0.1981
0.3895 0.2989 0.2767
0.5416 0.2422 0.3681
0.6944 0.1905 0.4515
0.8161 0.1540 0.5127
0.8989 0.1333 0.5624
0.9491 0.1247 0.6025
0.9763 0.1238 0.6376
0.9901 0.1272 0.6690
0.9970 0.1326 0.6991
1.0008 0.1394 0.7287
1.0029 0.1471 0.7594
1.0038 0.1559 0.7900
1.0042 0.1656 0.8206
1.0039 0.1760 0.8518
1.0032 0.1867 0.8832
1.0013 0.1975 0.9127
0.9986 0.2079 0.9397
0.9953 0.2146 0.9568
0.0002 0.4505 0.0004
0.0039 0.4508 0.0013
0.0078 0.4515 0.0026
0.0081 0.4544 0.0040
0.0106 0.4571 0.0054
0.0125 0.4605 0.0066
0.0142 0.4645 0.0079
0.0157 0.4690 0.0092
0.0174 0.4739 0.0107
0.0197 0.4786 0.0130
0.0243 0.4823 0.0175
0.0335 0.4833 0.0264
0.0503 0.4792 0.0421
0.0788 0.4676 0.0687
0.1269 0.4460 0.1122
0.2169 0.4088 0.1836
0.3587 0.3553 0.2896
0.5373 0.2941 0.4010
0.7156 0.2386 0.4995
0.8480 0.2022 0.5685
0.9309 0.1836 0.6224
0.9740 0.1778 0.6643
0.9925 0.1796 0.6989
0.9995 0.1850 0.7285
1.0020 0.1921 0.7569
1.0030 0.1998 0.7861
1.0032 0.2077 0.8163
1.0031 0.2158 0.8459
1.0029 0.2236 0.8765
1.0022 0.2316 0.9074
1.0004 0.2399 0.9358
0.9968 0.2491 0.9612
0.9916 0.2556 0.9766
0.0001 0.4854 -0.0001
0.0020 0.4857 0.0006
0.0044 0.4865 0.0016
0.0068 0.4881 0.0026
0.0090 0.4902 0.0035
0.0112 0.4930 0.0044
0.0118 0.4967 0.0053
0.0136 0.5006 0.0063
0.0152 0.5049 0.0073
0.0172 0.5095 0.0089
0.0202 0.5139 0.0115
0.0250 0.5172 0.0163
0.0340 0.5182 0.0251
0.0500 0.5151 0.0405
0.0798 0.5052 0.0688
0.1345 0.4849 0.1203
0.2295 0.4509 0.2035
0.3715 0.4029 0.3112
0.5509 0.3467 0.4268
0.7243 0.2965 0.5283
0.8513 0.2635 0.6116
0.9322 0.2457 0.6754
0.9733 0.2398 0.7218
0.9927 0.2407 0.7595
0.9993 0.2453 0.7904
1.0020 0.2515 0.8198
1.0024 0.2574 0.8491
1.0023 0.2620 0.8778
1.0019 0.2651 0.9055
1.0011 0.2673 0.9274
0.9994 0.2696 0.9493
0.9959 0.2736 0.9653
0.9908 0.2768 0.9781
0.0002 0.5203 -0.0001
0.0016 0.5204 0.0002
0.0032 0.5209 0.0007
0.0048 0.5222 0.0013
0.0063 0.5241 0.0018
0.0076 0.5265 0.0024
0.0087 0.5295 0.0028
0.0097 0.5330 0.0033
0.0110 0.5368 0.0039
0.0089 0.5420 0.0042
0.0101 0.5467 0.0049
0.0115 0.5516 0.0062
0.0143 0.5560 0.0086
0.0198 0.5590 0.0137
0.0318 0.5588 0.0252
0.0583 0.5524 0.0517
0.1152 0.5344 0.1085
0.2215 0.5001 0.2067
0.3798 0.4510 0.3358
0.5699 0.3953 0.4700
0.7469 0.3466 0.5901
0.8662 0.3169 0.6753
0.9331 0.3021 0.7327
0.9705 0.2959 0.7792
0.9886 0.2948 0.8173
0.9967 0.2965 0.8508
0.9999 0.2989 0.8810
1.0008 0.3001 0.9073
1.0005 0.2990 0.9283
0.9998 0.2965 0.9384
0.9987 0.2938 0.9498
0.9964 0.2924 0.9633
0.9931 0.2923 0.9690
0.0000 0.5544 -0.0006
0.0007 0.5543 -0.0005
0.0015 0.5547 -0.0002
0.0025 0.5557 0.0000
0.0034 0.5573 0.0003
0.0042 0.5593 0.0005
0.0049 0.5618 0.0006
0.0054 0.5648 0.0007
0.0056 0.5683 0.0007
0.0059 0.5723 0.0008
0.0060 0.5768 0.0009
0.0072 0.5813 0.0016
0.0061 0.5869 0.0015
0.0083 0.5914 0.0035
0.0137 0.5946 0.0088
0.0264 0.5949 0.0213
0.0562 0.5891 0.0516
0.1201 0.5717 0.1165
0.2341 0.5385 0.2235
0.3960 0.4922 0.3588
0.5820 0.4400 0.5075
0.7510 0.3946 0.6367
0.8672 0.3653 0.7300
0.9375 0.3484 0.7972
0.9743 0.3403 0.8460
0.9911 0.3372 0.8841
0.9980 0.3363 0.9156
1.0000 0.3347 0.9425
1.0002 0.3311 0.9487
0.9981 0.3252 0.9509
0.9967 0.3177 0.9509
0.9975 0.3108 0.9524
0.9974 0.3066 0.9627
-0.0017 0.5873 -0.0022
-0.0017 0.5874 -0.0022
-0.0017 0.5879 -0.0022
-0.0015 0.5888 -0.0022
-0.0012 0.5902 -0.0021
-0.0010 0.5918 -0.0021
-0.0009 0.5939 -0.0022
-0.0008 0.5965 -0.0022
-0.0008 0.5995 -0.0023
-0.0006 0.6031 -0.0023
-0.0006 0.6072 -0.0024
-0.0001 0.6115 -0.0022
0.0008 0.6161 -0.0017
0.0022 0.6205 -0.0006
0.0056 0.6239 0.0033
0.0107 0.6271 0.0087
0.0272 0.6260 0.0263
0.0631 0.6189 0.0629
0.1332 0.6011 0.1305
0.2499 0.5688 0.2372
0.4048 0.5251 0.3751
0.5738 0.4777 0.5205
0.7291 0.4346 0.6520
0.8402 0.4042 0.7544
0.9140 0.3839 0.8231
0.9593 0.3707 0.8757
0.9843 0.3626 0.9140
0.9956 0.3568 0.9450
0.9992 0.3511 0.9563
0.9996 0.3442 0.9543
0.9981 0.3356 0.9561
0.9975 0.3274 0.9597
0.9972 0.3220 0.9676
-0.0024 0.6186 -0.0031
-0.0026 0.6186 -0.0031
-0.0028 0.6190 -0.0031
-0.0027 0.6197 -0.0031
-0.0027 0.6207 -0.0031
-0.0026 0.6217 -0.0031
-0.0025 0.6231 -0.0031
-0.0024 0.6249 -0.0031
-0.0024 0.6274 -0.0032
-0.0025 0.6306 -0.0033
-0.0024 0.6343 -0.0033
-0.0024 0.6384 -0.0033
-0.0022 0.6427 -0.0032
-0.0016 0.6466 -0.0025
-0.0005 0.6500 -0.0012
0.0025 0.6523 0.0024
0.0100 0.6532 0.0109
0.0304 0.6498 0.0338
0.0652 0.6439 0.0660
0.1383 0.6248 0.1374
0.2525 0.5924 0.2460
0.3979 0.5499 0.3812
0.5516 0.5050 0.5189
0.6902 0.4645 0.6400
0.7980 0.4336 0.7295
0.8779 0.4107 0.7997
0.9344 0.3934 0.8647
0.9701 0.3812 0.9126
0.9888 0.3719 0.9451
0.9965 0.3641 0.9591
0.9978 0.3565 0.9642
0.9965 0.3492 0.9723
0.9946 0.3445 0.9777
-0.0030 0.6480 -0.0038
-0.0033 0.6476 -0.0038
-0.0036 0.6475 -0.0038
-0.0036 0.6479 -0.0038
-0.0036 0.6482 -0.0038
-0.0036 0.6483 -0.0038
-0.0035 0.6484 -0.0038
-0.0035 0.6489 -0.0038
-0.0035 0.6501 -0.0038
-0.0035 0.6524 -0.0039
-0.0035 0.6554 -0.0039
-0.0035 0.6589 -0.0039
-0.0034 0.6626 -0.0037
-0.0032 0.6660 -0.0035
-0.0027 0.6685 -0.0029
-0.0014 0.6698 -0.0012
0.0021 0.6700 0.0036
0.0104 0.6692 0.0132
0.0300 0.6658 0.0342
0.0698 0.6566 0.0751
0.1433 0.6360 0.1496
0.2305 0.6148 0.2294
0.3689 0.5723 0.3655
0.5094 0.5297 0.4982
0.6400 0.4914 0.6082
0.7622 0.4562 0.7137
0.8618 0.4286 0.8019
0.9365 0.4065 0.8859
0.9776 0.3929 0.9383
0.9948 0.3845 0.9652
0.9992 0.3782 0.9781
0.9979 0.3726 0.9855
0.9945 0.3689 0.9898
-0.0037 0.6750 -0.0042
-0.0040 0.6743 -0.0042
-0.0041 0.6739 -0.0042
-0.0041 0.6741 -0.0042
-0.0041 0.6741 -0.0042
-0.0041 0.6732 -0.0042
-0.0040 0.6716 -0.0042
-0.0040 0.6699 -0.0041
-0.0039 0.6693 -0.0041
-0.0039 0.6701 -0.0041
-0.0040 0.6724 -0.0042
-0.0040 0.6755 -0.0042
-0.0041 0.6789 -0.0042
-0.0041 0.6820 -0.0043
-0.0041 0.6840 -0.0044
-0.0039 0.6843 -0.0043
-0.0034 0.6832 -0.0038
-0.0015 0.6818 -0.0020
0.0046 0.6804 0.0038
0.0201 0.6776 0.0191
0.0555 0.6686 0.0558
0.1164 0.6508 0.1177
0.2052 0.6232 0.2045
0.3147 0.5898 0.3038
0.4301 0.5565 0.4075
0.5714 0.5175 0.5385
0.7205 0.4774 0.6817
0.8386 0.4476 0.7999
0.9204 0.4273 0.8853
0.9670 0.4150 0.9410
0.9885 0.4080 0.9731
0.9959 0.4037 0.9875
0.9976 0.4014 0.9934
-0.0041 0.6929 -0.0046
-0.0043 0.6913 -0.0046
-0.0044 0.6904 -0.0046
-0.0044 0.6902 -0.0046
-0.0044 0.6896 -0.0046
-0.0044 0.6879 -0.0046
-0.0043 0.6849 -0.0045
-0.0041 0.6814 -0.0043
-0.0040 0.6788 -0.0042
-0.0039 0.6778 -0.0042
-0.0039 0.6786 -0.0042
-0.0040 0.6808 -0.0043
-0.0042 0.6836 -0.0044
-0.0042 0.6864 -0.0045
-0.0043 0.6882 -0.0046
-0.0042 0.6884 -0.0045
-0.0040 0.6869 -0.0042
-0.0030 0.6847 -0.0030
-0.0001 0.6828 0.0003
0.0075 0.6810 0.0089
0.0237 0.6776 0.0267
0.0536 0.6700 0.0580
0.1025 0.6561 0.1057
0.1748 0.6350 0.1728
0.2744 0.6075 0.2661
0.4045 0.5737 0.3918
0.5562 0.5362 0.5371
0.7231 0.4934 0.7108
0.8538 0.4649 0.8396
0.9347 0.4484 0.9244
0.9769 0.4399 0.9703
0.9945 0.4364 0.9915
1.0044 0.4347 1.0003
-0.0047 0.7040 -0.0050
-0.0047 0.7027 -0.0049
-0.0048 0.7020 -0.0049
-0.0048 0.7019 -0.0049
-0.0048 0.7013 -0.0049
-0.0048 0.6994 -0.0049
-0.0046 0.6956 -0.0048
-0.0045 0.6903 -0.0046
-0.0044 0.6854 -0.0045
-0.0041 0.6823 -0.0044
-0.0041 0.6817 -0.0043
-0.0042 0.6830 -0.0044
-0.0044 0.6854 -0.0045
-0.0044 0.6881 -0.0046
-0.0044 0.6903 -0.0046
-0.0044 0.6910 -0.0047
-0.0044 0.6899 -0.0046
-0.0042 0.6874 -0.0045
-0.0036 0.6852 -0.0039
-0.0019 0.6843 -0.0022
0.0027 0.6843 0.0021
0.0129 0.6834 0.0118
0.0331 0.6793 0.0308
0.0698 0.6704 0.0659
0.1339 0.6548 0.1288
0.2387 0.6300 0.2359
0.3860 0.5962 0.3836
0.5580 0.5582 0.5525
0.7244 0.5232 0.7115
0.8453 0.5007 0.8278
0.9450 0.4805 0.9448
0.9858 0.4743 0.9858
1.0094 0.4717 1.0045
-0.0049 0.7040 -0.0050
-0.0049 0.7038 -0.0050
-0.0049 0.7037 -0.0050
-0.0049 0.7038 -0.0050
-0.0049 0.7036 -0.0050
-0.0049 0.7023 -0.0050
-0.0048 0.6990 -0.0049
-0.0046 0.6936 -0.0048
-0.0045 0.6875 -0.0046
-0.0043 0.6828 -0.0044
-0.0042 0.6808 -0.0044
-0.0042 0.6812 -0.0044
-0.0043 0.6832 -0.0045
-0.0044 0.6858 -0.0046
-0.0045 0.6884 -0.0046
-0.0044 0.6902 -0.0046
-0.0043 0.6907 -0.0046
-0.0042 0.6899 -0.0045
-0.0040 0.6887 -0.0044
-0.0035 0.6884 -0.0040
-0.0023 0.6895 -0.0029
0.0009 0.6914 -0.0001
0.0086 0.6928 0.0064
0.0244 0.6922 0.0206
0.0567 0.6879 0.0513
0.1203 0.6768 0.1145
0.2308 0.6551 0.2255
0.3903 0.6231 0.3853
0.5733 0.5882 0.5659
0.7415 0.5576 0.7309
0.8651 0.5382 0.8545
0.9458 0.5269 0.9385
1.0049 0.5210 0.9845
-0.0048 0.6989 -0.0049
-0.0049 0.6999 -0.0050
-0.0049 0.7008 -0.0050
-0.0049 0.7013 -0.0050
-0.0048 0.7014 -0.0050
-0.0048 0.7010 -0.0050
-0.0047 0.6993 -0.0049
-0.0046 0.6961 -0.0048
-0.0044 0.6920 -0.0047
-0.0043 0.6886 -0.0046
-0.0042 0.6868 -0.0046
-0.0042 0.6869 -0.0045
-0.0042 0.6884 -0.0046
-0.0042 0.6907 -0.0046
-0.0041 0.6934 -0.0046
-0.0038 0.6959 -0.0046
-0.0033 0.6980 -0.0045
-0.0026 0.6995 -0.0042
-0.0020 0.7007 -0.0037
-0.0014 0.7021 -0.0032
-0.0005 0.7043 -0.0025
0.0014 0.7074 -0.0009
0.0064 0.7108 0.0032
0.0176 0.7138 0.0123
0.0389 0.7155 0.0317
0.0787 0.7137 0.0705
0.1496 0.7055 0.1413
0.2647 0.6884 0.2534
0.4189 0.6645 0.3995
0.5886 0.6385 0.5588
0.7449 0.6171 0.7057
0.8741 0.5995 0.8384
0.9929 0.5859 0.9307
-0.0049 0.6997 -0.0050
-0.0049 0.7015 -0.0050
-0.0048 0.7031 -0.0050
-0.0048 0.7028 -0.0050
-0.0047 0.7039 -0.0050
-0.0045 0.7043 -0.0049
-0.0043 0.7040 -0.0049
-0.0041 0.7029 -0.0048
-0.0039 0.7010 -0.0046
-0.0037 0.6986 -0.0045
-0.0036 0.6972 -0.0044
-0.0035 0.6977 -0.0044
-0.0035 0.6993 -0.0044
-0.0035 0.7016 -0.0044
-0.0032 0.7044 -0.0044
-0.0024 0.7074 -0.0041
-0.0008 0.7103 -0.0035
0.0016 0.7135 -0.0021
0.0040 0.7169 -0.0004
0.0058 0.7203 0.0012
0.0070 0.7240 0.0021
0.0085 0.7284 0.0030
0.0115 0.7333 0.0049
0.0204 0.7386 0.0102
0.0371 0.7443 0.0211
0.0639 0.7498 0.0427
0.1085 0.7525 0.0852
0.1833 0.7497 0.1593
0.2969 0.7388 0.2658
0.4622 0.7193 0.3995
0.6278 0.7028 0.5298
0.8158 0.6804 0.6792
1.0032 0.6663 0.7770
-0.0050 0.7078 -0.0050
-0.0047 0.7099 -0.0050
-0.0045 0.7119 -0.0049
-0.0043 0.7131 -0.0049
-0.0040 0.7140 -0.0048
-0.0033 0.7155 -0.0045
-0.0028 0.7156 -0.0042
-0.0018 0.7170 -0.0037
-0.0006 0.7180 -0.0030
0.0007 0.7187 -0.0024
0.0019 0.7195 -0.0017
0.0026 0.7205 -0.0013
0.0031 0.7223 -0.0010
0.0037 0.7246 -0.0007
0.0046 0.7274 -0.0002
0.0065 0.7307 0.0007
0.0107 0.7344 0.0025
0.0186 0.7386 0.0052
0.0277 0.7435 0.0088
0.0357 0.7488 0.0120
0.0400 0.7547 0.0149
0.0433 0.7605 0.0173
0.0475 0.7667 0.0208
0.0587 0.7734 0.0274
0.0819 0.7802 0.0372
0.1205 0.7860 0.0508
0.1719 0.7904 0.0749
0.2378 0.7926 0.1153
0.3248 0.7918 0.1820
0.4576 0.7817 0.2671
0.6177 0.7703 0.3638
0.8018 0.7569 0.4593
1.0062 0.7444 0.5198
-0.0046 0.7281 -0.0045
-0.0034 0.7298 -0.0043
-0.0024 0.7316 -0.0040
-0.0017 0.7328 -0.0037
-0.0009 0.7342 -0.0033
0.0006 0.7358 -0.0026
0.0031 0.7380 -0.0016
0.0063 0.7407 -0.0001
0.0101 0.7441 0.0018
