deuteranomaly_emotive_to_.5.cube
TITLE "daltoLAB Deuteranomaly Emotive Naturalized to .5"
# Alessandro Bellia
LUT_3D_SIZE 5
0.0000 0.0000 0.0000
0.3173 -0.0012 0.0028
0.7611 -0.0022 0.2150
0.9750 0.0023 0.5255
0.9998 0.0005 0.8207
-0.0008 0.2640 0.0006
0.0857 0.2909 0.0529
0.8223 0.0214 0.3702
0.9920 0.0123 0.6153
1.0004 0.0456 0.8899
-0.0002 0.5543 -0.0007
0.0053 0.5685 0.0006
0.0657 0.5852 0.0617
0.9712 0.3387 0.8430
0.9967 0.3050 0.9563
-0.0051 0.6989 -0.0052
-0.0050 0.6911 -0.0052
-0.0039 0.6962 -0.0049
0.0305 0.7153 0.0216
0.9951 0.5871 0.9402
0.0046 1.0059 0.0023
0.1907 0.9644 0.0068
0.4679 0.9917 -0.0261
0.7393 1.0003 -0.0117
1.0007 1.0014 0.0038
0.2020 -0.0247 0.1522
0.3257 0.0038 0.1829
0.7673 0.0019 0.1594
0.9883 0.0025 0.2132
0.9981 0.0000 0.5345
0.0028 0.2682 0.2132
0.2500 0.2500 0.2500
0.6011 0.1862 0.2145
0.9878 0.0168 0.3436
0.9981 0.0257 0.6299
-0.0012 0.5587 0.2432
0.1774 0.5161 0.3180
0.3245 0.5251 0.3860
0.9535 0.3100 0.6088
1.0011 0.2482 0.7586
-0.0029 0.7044 0.1187
0.0029 0.6944 0.1077
0.0253 0.7063 0.0977
0.1290 0.7093 0.1341
0.9818 0.5701 0.9050
0.0072 0.9915 0.1915
0.1910 1.0009 0.1897
0.4220 0.9834 0.1916
0.7137 0.9920 0.2252
1.0002 0.9994 0.2476
0.4487 0.0001 0.5361
0.5556 -0.0018 0.5429
0.7827 -0.0025 0.5715
0.9841 0.0012 0.5820
1.0022 0.0137 0.3479
0.4586 0.1038 0.4487
0.4621 0.1728 0.4117
0.6086 0.1899 0.4711
0.9788 0.0225 0.5672
0.9831 0.0281 0.2427
-0.0020 0.5808 0.5005
0.1880 0.5278 0.4724
0.5000 0.5000 0.5000
0.8038 0.4409 0.4447
0.9969 0.1974 0.4344
-0.0049 0.6887 0.3807
0.0092 0.6982 0.3883
0.3634 0.7344 0.5546
0.5398 0.7428 0.6211
0.9676 0.5598 0.7079
0.0064 1.0014 0.4848
0.1992 1.0054 0.4620
0.4160 0.9892 0.4539
0.7108 0.9924 0.4816
0.9999 0.9995 0.4998
0.5287 0.0017 0.8152
0.6125 0.0020 0.8225
0.8014 0.0003 0.8402
0.9877 0.0032 0.8511
1.0038 0.0022 0.8814
0.6745 0.0088 0.8327
0.7324 0.0171 0.8356
0.8671 0.0272 0.8396
0.9896 0.0356 0.8648
1.0035 0.0518 0.8902
0.2518 0.5290 0.6721
0.4544 0.4710 0.6487
0.7225 0.4323 0.6792
0.8202 0.4453 0.7414
0.9704 0.2248 0.7581
-0.0047 0.7052 0.6268
0.0064 0.7144 0.6302
0.3778 0.7462 0.6898
0.7500 0.7500 0.7500
0.9666 0.7176 0.6834
0.0046 1.0055 0.7385
0.1959 1.0026 0.7226
0.4323 1.0013 0.7208
0.7413 0.9980 0.7570
0.9999 0.9996 0.7542
0.5714 0.0031 1.0011
0.6413 0.0044 1.0023
0.8071 0.0043 1.0032
0.9927 0.0006 1.0020
1.0043 0.0022 1.0044
0.6968 0.0118 1.0018
0.7517 0.0157 1.0031
0.8876 0.0241 1.0038
1.0006 0.0460 1.0030
1.0038 0.0804 1.0046
0.9117 0.3406 0.9918
0.9456 0.3368 0.9940
0.9896 0.3309 0.9973
0.9940 0.3005 0.9990
1.0040 0.2234 1.0036
0.0147 0.7088 0.8409
0.0332 0.7141 0.8357
0.3165 0.6773 0.7900
0.9309 0.6660 0.9506
1.0002 0.7141 0.9982
0.0047 1.0007 0.9969
0.2195 0.9997 0.9969
0.4625 1.0012 0.9994
0.7484 0.9993 0.9999
1.0000 1.0000 1.0000
