deuteranomaly_emotive_to_.5.cube
TITLE "daltoLAB Deuteranomaly Emotive Naturalized to .5"
# Alessandro Bellia
LUT_3D_SIZE 9
0.0000 0.0000 0.0000
0.1410 -0.0009 0.0056
0.3173 -0.0012 0.0028
0.5185 0.0010 0.0454
0.7611 -0.0022 0.2150
0.8832 0.0005 0.3746
0.9750 0.0023 0.5255
1.0030 0.0024 0.6803
0.9998 0.0005 0.8207
0.0001 0.1294 0.0018
0.0770 0.1387 0.0199
0.3585 0.0813 0.0769
0.5371 0.0505 0.1417
0.7819 0.0032 0.2659
0.9000 0.0002 0.4091
0.9798 0.0019 0.5490
1.0028 0.0023 0.7029
0.9994 0.0006 0.8396
-0.0008 0.2640 0.0006
0.0308 0.2817 0.0189
0.0857 0.2909 0.0529
0.4666 0.1560 0.2478
0.8223 0.0214 0.3702
0.9358 0.0090 0.4903
0.9920 0.0123 0.6153
1.0038 0.0285 0.7639
1.0004 0.0456 0.8899
-0.0003 0.4052 0.0001
0.0187 0.4172 0.0113
0.0329 0.4371 0.0244
0.1070 0.4272 0.0833
0.5436 0.2411 0.3696
0.9473 0.1250 0.5998
1.0004 0.1392 0.7286
1.0039 0.1753 0.8515
0.9955 0.2143 0.9554
-0.0002 0.5543 -0.0007
0.0028 0.5574 0.0001
0.0053 0.5685 0.0006
0.0075 0.5865 0.0028
0.0657 0.5852 0.0617
0.5710 0.4418 0.4946
0.9712 0.3387 0.8430
1.0001 0.3284 0.9459
0.9967 0.3050 0.9563
-0.0043 0.6738 -0.0049
-0.0047 0.6724 -0.0048
-0.0044 0.6684 -0.0046
-0.0048 0.6777 -0.0050
-0.0040 0.6823 -0.0044
0.0579 0.6677 0.0596
0.4359 0.5546 0.4224
0.9351 0.4228 0.9036
0.9979 0.3995 0.9987
-0.0051 0.6989 -0.0052
-0.0050 0.7012 -0.0052
-0.0050 0.6911 -0.0052
-0.0049 0.6865 -0.0052
-0.0039 0.6962 -0.0049
-0.0018 0.7021 -0.0035
0.0305 0.7153 0.0216
0.4123 0.6636 0.3949
0.9951 0.5871 0.9402
-0.0034 0.7544 -0.0032
0.0046 0.7612 -0.0002
0.0273 0.7755 0.0079
0.0332 0.7909 0.0177
0.0490 0.8060 0.0267
0.1824 0.8280 0.0264
0.2581 0.8567 0.0329
0.6033 0.8521 0.0214
0.9707 0.8630 0.1503
0.0046 1.0059 0.0023
0.0985 0.9876 0.0014
0.1907 0.9644 0.0068
0.3514 0.9945 -0.0173
0.4679 0.9917 -0.0261
0.5944 0.9943 -0.0179
0.7393 1.0003 -0.0117
0.8685 1.0003 -0.0083
1.0007 1.0014 0.0038
0.0930 -0.0156 0.0428
0.1469 0.0040 0.0622
0.3158 -0.0003 0.0884
0.5269 0.0040 0.0127
0.7597 0.0033 0.0708
0.8976 0.0006 0.2281
0.9802 0.0022 0.3891
1.0024 0.0020 0.5589
0.9980 -0.0001 0.7022
0.0071 0.1314 0.0793
0.1250 0.1250 0.1250
0.2718 0.1168 0.1243
0.4597 0.0923 0.1014
0.6831 0.0497 0.1459
0.9058 0.0032 0.2704
0.9800 0.0016 0.4247
1.0013 0.0023 0.5854
0.9978 0.0001 0.7249
0.0002 0.2653 0.1080
0.1124 0.2525 0.1609
0.1867 0.2646 0.1539
0.4624 0.1908 0.2217
0.6956 0.1098 0.2718
0.9284 0.0198 0.3691
0.9889 0.0168 0.5073
1.0025 0.0301 0.6547
0.9987 0.0382 0.7873
-0.0002 0.4063 0.1133
0.0872 0.3897 0.1654
0.1541 0.3960 0.2108
0.1994 0.4073 0.2198
0.5790 0.2670 0.3704
0.9325 0.1303 0.5055
0.9980 0.1342 0.6308
1.0035 0.1596 0.7523
0.9974 0.1813 0.8628
-0.0010 0.5546 0.1104
0.0492 0.5346 0.1437
0.1023 0.5361 0.1818
0.1496 0.5441 0.2143
0.2029 0.5480 0.2462
0.5860 0.4252 0.4788
0.9510 0.3233 0.7322
0.9985 0.3046 0.8433
0.9996 0.2799 0.8863
-0.0058 0.6715 0.0971
-0.0019 0.6646 0.0863
0.0051 0.6601 0.0790
0.0091 0.6685 0.0760
0.0180 0.6724 0.0577
0.0969 0.6509 0.1135
0.4864 0.5356 0.4533
0.9122 0.4241 0.8480
0.9917 0.3967 0.9703
-0.0042 0.7028 0.0165
-0.0036 0.7038 0.0136
-0.0028 0.6970 0.0067
-0.0020 0.6952 0.0006
0.0019 0.7045 0.0018
0.0108 0.7122 0.0065
0.0730 0.7174 0.0532
0.4854 0.6585 0.4313
0.9894 0.5796 0.8980
-0.0022 0.7610 0.0021
0.0183 0.7717 0.0179
0.0519 0.7852 0.0336
0.0830 0.7960 0.0409
0.1154 0.8086 0.0480
0.2471 0.8262 0.0627
0.3434 0.8501 0.0830
0.5947 0.8574 0.1249
0.9744 0.8596 0.2352
0.0081 1.0026 0.1061
0.0882 1.0001 0.0948
0.1954 0.9834 0.0938
0.3227 0.9872 0.1022
0.4313 0.9789 0.0982
0.5576 0.9789 0.1048
0.7065 0.9927 0.1104
0.8409 0.9938 0.1173
1.0005 1.0002 0.1249
0.2020 -0.0247 0.1522
0.2217 0.0009 0.1507
0.3257 0.0038 0.1829
0.5246 -0.0013 0.2331
0.7673 0.0019 0.1594
0.9077 0.0091 0.0547
0.9883 0.0025 0.2132
1.0031 0.0021 0.3855
0.9981 0.0000 0.5345
0.1978 0.0787 0.2059
0.2200 0.1046 0.1765
0.2777 0.1206 0.1992
0.4551 0.0956 0.2331
0.6797 0.0625 0.1223
0.9102 0.0117 0.0949
0.9867 0.0016 0.2520
1.0021 0.0019 0.4172
0.9980 -0.0003 0.5614
0.0028 0.2682 0.2132
0.1219 0.2561 0.2228
0.2500 0.2500 0.2500
0.3989 0.2353 0.2481
0.6011 0.1862 0.2145
0.8194 0.1055 0.2487
0.9878 0.0168 0.3436
1.0024 0.0217 0.4943
0.9981 0.0257 0.6299
0.0002 0.4104 0.2352
0.0939 0.3926 0.2587
0.2288 0.3770 0.3056
0.2866 0.3929 0.2997
0.5792 0.3081 0.3537
0.8105 0.2161 0.3963
0.9868 0.1269 0.4821
1.0039 0.1368 0.6018
1.0000 0.1491 0.7065
-0.0012 0.5587 0.2432
0.0545 0.5365 0.2617
0.1774 0.5161 0.3180
0.2738 0.5138 0.3679
0.3245 0.5251 0.3860
0.6415 0.4284 0.4792
0.9535 0.3100 0.6088
1.0008 0.2801 0.7030
1.0011 0.2482 0.7586
-0.0062 0.6719 0.2317
0.0011 0.6603 0.2209
0.0958 0.6432 0.2706
0.1546 0.6451 0.3042
0.2101 0.6446 0.3259
0.2888 0.6331 0.3648
0.5901 0.5046 0.5196
0.9276 0.4035 0.7585
0.9971 0.3782 0.8700
-0.0029 0.7044 0.1187
-0.0039 0.7017 0.1254
0.0029 0.6944 0.1077
0.0141 0.6974 0.1028
0.0253 0.7063 0.0977
0.0430 0.7132 0.0868
0.1290 0.7093 0.1341
0.5046 0.6499 0.4561
0.9818 0.5701 0.9050
0.0008 0.7652 0.0337
0.0264 0.7788 0.0653
0.0631 0.7899 0.0844
0.0961 0.7952 0.0911
0.1329 0.8060 0.0985
0.2575 0.8260 0.1219
0.3552 0.8496 0.1481
0.5980 0.8566 0.2064
0.9724 0.8563 0.3304
0.0072 0.9915 0.1915
0.0834 0.9986 0.1875
0.1910 1.0009 0.1897
0.3121 0.9955 0.1965
0.4220 0.9834 0.1916
0.5540 0.9804 0.2078
0.7137 0.9920 0.2252
0.8407 0.9927 0.2359
1.0002 0.9994 0.2476
0.3490 -0.0337 0.3526
0.3603 -0.0120 0.3269
0.4158 0.0023 0.3234
0.5406 0.0009 0.3557
0.7686 -0.0028 0.4299
0.8993 -0.0018 0.4154
0.9883 0.0068 0.2010
1.0052 0.0057 0.1945
0.9968 -0.0004 0.3473
0.3233 0.0510 0.2948
0.3326 0.0729 0.2849
0.3562 0.0992 0.2844
0.4677 0.0968 0.3286
0.6785 0.0562 0.3920
0.9033 0.0050 0.3894
0.9939 0.0095 0.1398
1.0042 0.0037 0.2273
0.9971 -0.0009 0.3724
0.0814 0.2504 0.3071
0.2269 0.2179 0.3763
0.3457 0.2236 0.3094
0.4067 0.2373 0.3339
0.5950 0.1899 0.3793
0.8122 0.1194 0.2771
0.9885 0.0260 0.1632
1.0029 0.0174 0.3093
0.9976 0.0164 0.4463
0.0022 0.4187 0.3514
0.0960 0.3988 0.3453
0.2391 0.3817 0.3518
0.3750 0.3750 0.3750
0.5237 0.3576 0.3705
0.7203 0.2990 0.3434
0.8952 0.2109 0.3648
1.0007 0.1214 0.4243
1.0018 0.1240 0.5240
-0.0016 0.5667 0.3722
0.0559 0.5425 0.3713
0.1868 0.5202 0.3977
0.3451 0.5021 0.4398
0.4095 0.5162 0.4438
0.7043 0.4413 0.4583
0.8721 0.3724 0.4921
0.9947 0.2649 0.5352
0.9992 0.2206 0.6025
-0.0064 0.6688 0.3542
0.0010 0.6605 0.3457
0.1050 0.6466 0.3836
0.2667 0.6328 0.4488
0.3676 0.6279 0.4872
0.4288 0.6332 0.5068
0.7132 0.5242 0.5535
0.9514 0.3890 0.6387
0.9976 0.3572 0.7155
-0.0046 0.6982 0.2682
-0.0039 0.6964 0.2646
0.0079 0.6944 0.2600
0.1498 0.7161 0.3497
0.2176 0.7203 0.3850
0.2804 0.7215 0.4126
0.3805 0.7166 0.4598
0.6356 0.6235 0.5630
0.9414 0.5647 0.7911
0.0001 0.7718 0.2149
0.0339 0.7876 0.2371
0.0651 0.7940 0.2441
0.1047 0.7997 0.2518
0.1771 0.8108 0.2722
0.2995 0.8283 0.2908
0.4176 0.8465 0.3070
0.6292 0.8555 0.3438
0.9615 0.8529 0.4367
0.0068 0.9914 0.3307
0.0961 0.9976 0.3284
0.1978 1.0043 0.3238
0.3052 1.0012 0.3122
0.4243 0.9848 0.3146
0.5591 0.9832 0.3339
0.7072 0.9919 0.3456
0.8408 0.9927 0.3588
1.0000 0.9991 0.3717
0.4487 0.0001 0.5361
0.4837 0.0004 0.5378
0.5556 -0.0018 0.5429
0.6612 -0.0039 0.5557
0.7827 -0.0025 0.5715
0.9032 0.0002 0.5831
0.9841 0.0012 0.5820
0.9986 -0.0008 0.5249
1.0022 0.0137 0.3479
0.5036 0.0039 0.5337
0.4892 0.0224 0.4922
0.4995 0.0503 0.4611
0.5707 0.0603 0.4717
0.6929 0.0548 0.5077
0.9064 0.0074 0.5791
0.9840 0.0003 0.5813
0.9985 0.0006 0.4981
0.9578 0.0244 0.2057
0.4586 0.1038 0.4487
0.4467 0.1332 0.4192
0.4621 0.1728 0.4117
0.4917 0.1977 0.4170
0.6086 0.1899 0.4711
0.8099 0.1180 0.5440
0.9788 0.0225 0.5672
1.0037 0.0219 0.3907
0.9831 0.0281 0.2427
0.0467 0.4265 0.4551
0.0918 0.4058 0.4367
0.2914 0.3589 0.4669
0.4714 0.3466 0.4363
0.5343 0.3593 0.4644
0.7112 0.3077 0.5174
0.8834 0.2273 0.4634
1.0030 0.1195 0.2631
0.9977 0.1044 0.3309
-0.0020 0.5808 0.5005
0.0537 0.5530 0.4807
0.1880 0.5278 0.4724
0.3571 0.5077 0.4784
0.5000 0.5000 0.5000
0.6386 0.4889 0.4855
0.8038 0.4409 0.4447
0.9455 0.3388 0.4308
0.9969 0.1974 0.4344
-0.0061 0.6720 0.4774
0.0011 0.6675 0.4706
0.1076 0.6532 0.4854
0.2791 0.6371 0.5207
0.4608 0.6238 0.5647
0.5284 0.6374 0.5693
0.8083 0.5544 0.5535
0.9251 0.4713 0.5602
0.9964 0.3537 0.5552
-0.0049 0.6887 0.3807
-0.0036 0.6939 0.3854
0.0092 0.6982 0.3883
0.1631 0.7223 0.4638
0.3634 0.7344 0.5546
0.4712 0.7339 0.5974
0.5398 0.7428 0.6211
0.8252 0.6462 0.6332
0.9676 0.5598 0.7079
0.0016 0.7848 0.3633
0.0377 0.7943 0.3800
0.0664 0.7976 0.3821
0.1129 0.8061 0.3939
0.3107 0.8398 0.4858
0.4362 0.8485 0.5247
0.5105 0.8748 0.5106
0.6941 0.8766 0.5192
0.9601 0.8481 0.5381
0.0064 1.0014 0.4848
0.1063 1.0032 0.4744
0.1992 1.0054 0.4620
0.2925 1.0065 0.4425
0.4160 0.9892 0.4539
0.5767 0.9856 0.4760
0.7108 0.9924 0.4816
0.8507 0.9946 0.4913
0.9999 0.9995 0.4998
0.4971 0.0007 0.6801
0.5289 0.0007 0.6832
0.5931 0.0003 0.6894
0.6884 -0.0021 0.6997
0.7967 -0.0016 0.7075
0.9067 0.0008 0.7141
0.9866 0.0026 0.7200
1.0028 0.0017 0.7361
0.9995 0.0018 0.7405
0.5516 -0.0023 0.6866
0.5792 -0.0002 0.6870
0.6317 0.0023 0.6891
0.7112 0.0045 0.6941
0.8107 0.0059 0.7033
0.9156 0.0051 0.7142
0.9863 0.0026 0.7265
1.0019 0.0031 0.7378
0.9915 0.0032 0.7343
0.6354 0.0206 0.6819
0.6538 0.0266 0.6820
0.6348 0.0837 0.6258
0.6422 0.1163 0.5917
0.7216 0.1221 0.6143
0.8238 0.1153 0.6527
0.9826 0.0326 0.7317
1.0015 0.0321 0.7423
0.9896 0.0355 0.7327
0.4185 0.2741 0.5298
0.4649 0.2617 0.5360
0.5595 0.2565 0.5410
0.5920 0.2942 0.5372
0.6248 0.3170 0.5491
0.7272 0.3106 0.6105
0.8875 0.2391 0.6970
0.9914 0.1348 0.7138
0.9770 0.1090 0.6076
0.0133 0.5886 0.6139
0.0359 0.5830 0.6026
0.1403 0.5522 0.5630
0.3782 0.5023 0.5731
0.5974 0.4746 0.5649
0.6539 0.4890 0.5935
0.7998 0.4451 0.6554
0.9187 0.3558 0.5822
0.9156 0.2163 0.2917
-0.0052 0.6857 0.6021
-0.0018 0.6811 0.5956
0.1020 0.6629 0.5868
0.2795 0.6431 0.5860
0.4741 0.6299 0.6008
0.6250 0.6250 0.6250
0.7520 0.6131 0.6049
0.8874 0.5575 0.5464
0.9899 0.4607 0.4961
-0.0050 0.6946 0.5034
-0.0036 0.7003 0.5082
0.0097 0.7058 0.5104
0.1676 0.7282 0.5631
0.3789 0.7409 0.6268
0.5805 0.7443 0.6866
0.6507 0.7589 0.6987
0.9093 0.6893 0.6624
1.0020 0.6431 0.6544
0.0011 0.7916 0.4912
0.0379 0.7979 0.5034
0.0661 0.8017 0.5058
0.1185 0.8119 0.5184
0.3317 0.8478 0.5980
0.5348 0.8623 0.6764
0.6400 0.8763 0.6781
0.7497 0.8889 0.6580
0.9769 0.8584 0.6376
0.0048 1.0061 0.6137
0.1068 1.0043 0.6028
0.1986 1.0047 0.5926
0.2900 1.0049 0.5768
0.4110 1.0011 0.5869
0.5936 0.9982 0.6119
0.7258 0.9963 0.6221
0.8607 0.9974 0.6263
0.9998 0.9994 0.6293
0.5287 0.0017 0.8152
0.5568 0.0018 0.8172
0.6125 0.0020 0.8225
0.6976 0.0014 0.8301
0.8014 0.0003 0.8402
0.9097 0.0014 0.8476
0.9877 0.0032 0.8511
1.0037 0.0023 0.8704
1.0038 0.0022 0.8814
0.5768 -0.0010 0.8210
0.6039 -0.0004 0.8228
0.6538 0.0001 0.8270
0.7306 0.0003 0.8339
0.8265 0.0007 0.8433
0.9238 0.0022 0.8499
0.9875 0.0035 0.8585
1.0031 0.0056 0.8724
1.0036 0.0049 0.8832
0.6745 0.0088 0.8327
0.6945 0.0128 0.8346
0.7324 0.0171 0.8356
0.7915 0.0227 0.8365
0.8671 0.0272 0.8396
0.9436 0.0308 0.8489
0.9896 0.0356 0.8648
1.0038 0.0434 0.8783
1.0035 0.0518 0.8902
0.7258 0.1470 0.7902
0.7460 0.1496 0.7973
0.7991 0.1435 0.8189
0.7716 0.2065 0.7505
0.7779 0.2374 0.7248
0.8346 0.2458 0.7563
0.8998 0.2421 0.8045
0.9972 0.1496 0.8619
0.9986 0.1246 0.8518
0.2518 0.5290 0.6721
0.2955 0.5123 0.6566
0.4544 0.4710 0.6487
0.6853 0.4120 0.6873
0.7225 0.4323 0.6792
0.7491 0.4507 0.6949
0.8202 0.4453 0.7414
0.9400 0.3580 0.7946
0.9704 0.2248 0.7581
-0.0005 0.6961 0.7207
0.0050 0.6866 0.7094
0.0281 0.6802 0.6964
0.1883 0.6613 0.6641
0.4496 0.6293 0.6729
0.7187 0.5962 0.6937
0.7700 0.6119 0.7168
0.8914 0.5618 0.7648
0.9449 0.4888 0.7074
-0.0047 0.7052 0.6268
-0.0030 0.7107 0.6310
0.0064 0.7144 0.6302
0.1610 0.7335 0.6575
0.3778 0.7462 0.6898
0.5945 0.7504 0.7225
0.7500 0.7500 0.7500
0.8674 0.7423 0.7313
0.9666 0.7176 0.6834
0.0015 0.7984 0.6148
0.0390 0.8052 0.6268
0.0721 0.8095 0.6301
0.1468 0.8253 0.6495
0.3471 0.8550 0.7058
0.5500 0.8679 0.7575
0.7304 0.8707 0.7947
0.8278 0.8835 0.7652
0.9930 0.8669 0.7490
0.0046 1.0055 0.7385
0.1063 1.0036 0.7306
0.1959 1.0026 0.7226
0.2926 0.9987 0.7137
0.4323 1.0013 0.7208
0.5950 1.0008 0.7392
0.7413 0.9980 0.7570
0.8679 0.9994 0.7539
0.9999 0.9996 0.7542
0.5502 0.0037 0.9405
0.5761 0.0049 0.9408
0.6260 0.0049 0.9443
0.7023 0.0053 0.9495
0.7978 0.0063 0.9557
0.9028 0.0065 0.9628
0.9872 0.0019 0.9693
1.0029 0.0009 0.9840
1.0031 0.0014 0.9916
0.5928 0.0014 0.9422
0.6196 0.0018 0.9401
0.6650 0.0023 0.9429
0.7358 0.0027 0.9471
0.8263 0.0034 0.9525
0.9233 0.0035 0.9581
0.9874 0.0050 0.9652
1.0029 0.0095 0.9754
1.0026 0.0108 0.9882
0.6810 0.0116 0.9508
0.7048 0.0164 0.9477
0.7427 0.0173 0.9495
0.8033 0.0198 0.9528
0.8810 0.0240 0.9568
0.9552 0.0314 0.9625
0.9946 0.0440 0.9704
1.0035 0.0564 0.9763
1.0022 0.0662 0.9857
0.7905 0.1303 0.9536
0.8112 0.1362 0.9511
0.8447 0.1370 0.9562
0.8895 0.1419 0.9566
0.9378 0.1517 0.9559
0.9736 0.1646 0.9600
0.9913 0.1725 0.9675
1.0004 0.1502 0.9671
0.9995 0.1133 0.9314
0.7622 0.3843 0.8437
0.7535 0.3806 0.8274
0.8340 0.3593 0.8725
0.9115 0.3392 0.9196
0.8878 0.3663 0.8772
0.8965 0.3788 0.8767
0.9032 0.3811 0.8722
0.9501 0.3521 0.8929
1.0035 0.2288 0.8967
0.0954 0.6682 0.7899
0.1271 0.6581 0.7701
0.2162 0.6377 0.7445
0.4359 0.5846 0.7213
0.7265 0.5276 0.7746
0.8291 0.5429 0.8011
0.8556 0.5608 0.8140
0.9121 0.5599 0.8542
0.9914 0.4864 0.8999
-0.0011 0.7099 0.7423
0.0009 0.7178 0.7466
0.0080 0.7189 0.7425
0.0432 0.7232 0.7364
0.2523 0.7452 0.7481
0.5441 0.7453 0.7813
0.8385 0.7179 0.8405
0.8848 0.7399 0.8511
0.9890 0.7132 0.9014
0.0026 0.8088 0.7381
0.0478 0.8176 0.7555
0.0973 0.8259 0.7681
0.1693 0.8381 0.7825
0.3480 0.8601 0.8088
0.5564 0.8726 0.8380
0.7392 0.8755 0.8570
0.8750 0.8750 0.8750
0.9995 0.8735 0.8749
0.0041 1.0039 0.8628
0.1032 1.0002 0.8542
0.1993 0.9969 0.8489
0.3206 0.9989 0.8549
0.4527 1.0013 0.8608
0.5986 1.0001 0.8675
0.7445 0.9993 0.8758
0.8740 0.9995 0.8794
1.0001 0.9999 0.8759
0.5714 0.0031 1.0011
0.5940 0.0041 1.0018
0.6413 0.0044 1.0023
0.7144 0.0045 1.0027
0.8071 0.0043 1.0032
0.9108 0.0040 1.0036
0.9927 0.0006 1.0020
1.0038 0.0020 1.0043
1.0043 0.0022 1.0044
0.6112 0.0008 1.0007
0.6325 0.0016 1.0024
0.6755 0.0020 1.0028
0.7437 0.0023 1.0030
0.8314 0.0030 1.0036
0.9289 0.0027 1.0035
0.9964 0.0028 1.0007
1.0039 0.0091 1.0043
1.0045 0.0160 1.0046
0.6968 0.0118 1.0018
0.7156 0.0147 1.0025
0.7517 0.0157 1.0031
0.8107 0.0185 1.0035
0.8876 0.0241 1.0038
0.9677 0.0271 1.0015
1.0006 0.0460 1.0030
1.0048 0.0678 1.0052
1.0038 0.0804 1.0046
0.8118 0.1325 1.0042
0.8264 0.1359 1.0037
0.8556 0.1384 1.0041
0.9043 0.1434 1.0036
0.9621 0.1542 1.0013
0.9959 0.1726 1.0007
1.0023 0.1861 1.0036
1.0035 0.1581 1.0040
1.0034 0.1048 1.0045
0.9117 0.3406 0.9918
0.9181 0.3398 0.9911
0.9456 0.3368 0.9940
0.9769 0.3327 0.9962
0.9896 0.3309 0.9973
0.9923 0.3286 0.9981
0.9940 0.3005 0.9990
0.9981 0.2545 1.0014
1.0040 0.2234 1.0036
0.6070 0.5463 0.8737
0.5881 0.5471 0.8716
0.6137 0.5416 0.8347
0.8094 0.4795 0.9211
0.9198 0.4369 0.9643
0.9462 0.4658 0.9630
0.9680 0.4726 0.9785
0.9828 0.4805 0.9909
1.0024 0.4855 1.0020
0.0147 0.7088 0.8409
0.0195 0.7127 0.8410
0.0332 0.7141 0.8357
0.0852 0.7121 0.8184
0.3165 0.6773 0.7900
0.7293 0.6517 0.8549
0.9309 0.6660 0.9506
0.9605 0.6949 0.9817
1.0002 0.7141 0.9982
-0.0086 0.8274 0.8770
0.0538 0.8319 0.8787
0.1068 0.8381 0.8821
0.1627 0.8444 0.8799
0.2565 0.8537 0.8816
0.5209 0.8642 0.9654
0.7466 0.8651 0.9832
0.8795 0.8721 0.9989
0.9996 0.8740 1.0003
0.0047 1.0007 0.9969
0.1065 0.9988 0.9943
0.2195 0.9997 0.9969
0.3433 1.0014 0.9988
0.4625 1.0012 0.9994
0.6059 0.9999 1.0003
0.7484 0.9993 0.9999
0.8754 0.9998 1.0004
1.0000 1.0000 1.0000
