deuteranomaly_emotive_to_.4.cube
TITLE "daltoLAB Deuteranomaly Emotive Naturalized to .4"
# Alessandro Bellia
LUT_3D_SIZE 9
0.0000 0.0000 0.0000
0.1447 -0.0010 0.0053
0.3341 -0.0016 0.0026
0.5550 0.0017 0.0492
0.7613 -0.0022 0.2150
0.8833 0.0004 0.3746
0.9748 0.0021 0.5253
1.0029 0.0023 0.6803
0.9998 0.0004 0.8207
0.0001 0.1306 0.0014
0.0713 0.1405 0.0220
0.3675 0.0775 0.0761
0.5815 0.0348 0.1357
0.7814 0.0037 0.2657
0.9000 0.0001 0.4093
0.9788 0.0017 0.5494
1.0025 0.0025 0.7029
0.9993 0.0008 0.8370
-0.0011 0.2675 0.0002
0.0289 0.2837 0.0174
0.0862 0.2899 0.0537
0.4950 0.1376 0.2431
0.8221 0.0214 0.3701
0.9356 0.0088 0.4901
0.9912 0.0127 0.6167
1.0039 0.0295 0.7648
1.0006 0.0461 0.8901
-0.0001 0.4130 0.0003
0.0168 0.4212 0.0081
0.0283 0.4394 0.0181
0.1131 0.4197 0.0892
0.5416 0.2422 0.3681
0.9491 0.1247 0.6025
1.0008 0.1394 0.7287
1.0039 0.1760 0.8518
0.9953 0.2146 0.9568
0.0000 0.5544 -0.0006
0.0034 0.5573 0.0003
0.0056 0.5683 0.0007
0.0061 0.5869 0.0015
0.0562 0.5891 0.0516
0.5820 0.4400 0.5075
0.9743 0.3403 0.8460
1.0002 0.3311 0.9487
0.9974 0.3066 0.9627
-0.0037 0.6750 -0.0042
-0.0041 0.6741 -0.0042
-0.0039 0.6693 -0.0041
-0.0041 0.6789 -0.0042
-0.0034 0.6832 -0.0038
0.0555 0.6686 0.0558
0.4301 0.5565 0.4075
0.9204 0.4273 0.8853
0.9976 0.4014 0.9934
-0.0048 0.6989 -0.0049
-0.0048 0.7014 -0.0050
-0.0044 0.6920 -0.0047
-0.0042 0.6884 -0.0046
-0.0033 0.6980 -0.0045
-0.0005 0.7043 -0.0025
0.0389 0.7155 0.0317
0.4189 0.6645 0.3995
0.9929 0.5859 0.9307
-0.0036 0.7526 -0.0035
0.0025 0.7589 -0.0009
0.0197 0.7752 0.0087
0.0357 0.7927 0.0190
0.0590 0.8070 0.0267
0.1919 0.8284 0.0238
0.2711 0.8561 0.0309
0.6285 0.8464 0.0219
0.9790 0.8612 0.1696
0.0050 1.0063 0.0027
0.0988 0.9878 0.0017
0.1909 0.9646 0.0070
0.3518 0.9949 -0.0169
0.4677 0.9915 -0.0263
0.5938 0.9942 -0.0176
0.7392 1.0005 -0.0113
0.8686 1.0004 -0.0083
1.0006 1.0013 0.0037
0.0906 -0.0141 0.0431
0.1510 0.0036 0.0637
0.3311 -0.0016 0.0927
0.5629 0.0028 0.0117
0.7602 0.0035 0.0709
0.8976 0.0005 0.2280
0.9802 0.0021 0.3890
1.0023 0.0018 0.5588
0.9980 -0.0002 0.7021
0.0075 0.1322 0.0798
0.1250 0.1250 0.1250
0.2769 0.1151 0.1226
0.4809 0.0844 0.0953
0.7303 0.0319 0.1383
0.9059 0.0032 0.2703
0.9799 0.0014 0.4246
1.0012 0.0022 0.5853
0.9978 -0.0000 0.7251
-0.0003 0.2686 0.1092
0.1100 0.2538 0.1598
0.1869 0.2639 0.1563
0.4623 0.1854 0.2169
0.7484 0.0781 0.2634
0.9282 0.0198 0.3690
0.9889 0.0167 0.5072
1.0026 0.0301 0.6548
0.9991 0.0383 0.7879
-0.0004 0.4139 0.1152
0.0790 0.3946 0.1608
0.1559 0.3957 0.2121
0.2039 0.4029 0.2263
0.6074 0.2436 0.3655
0.9350 0.1286 0.5063
0.9982 0.1337 0.6310
1.0036 0.1595 0.7527
0.9975 0.1822 0.8646
-0.0009 0.5545 0.1107
0.0313 0.5448 0.1312
0.0682 0.5482 0.1562
0.1012 0.5585 0.1762
0.1834 0.5485 0.2312
0.5911 0.4241 0.4841
0.9539 0.3236 0.7346
0.9994 0.3057 0.8454
1.0002 0.2793 0.8854
-0.0051 0.6717 0.0977
-0.0013 0.6647 0.0869
0.0054 0.6602 0.0793
0.0097 0.6686 0.0767
0.0187 0.6726 0.0585
0.0998 0.6507 0.1172
0.4898 0.5350 0.4563
0.9113 0.4244 0.8469
0.9917 0.3969 0.9703
-0.0041 0.7032 0.0165
-0.0035 0.7044 0.0137
-0.0025 0.6975 0.0069
-0.0017 0.6956 0.0010
0.0019 0.7050 0.0018
0.0108 0.7126 0.0064
0.0728 0.7177 0.0529
0.4791 0.6597 0.4282
0.9882 0.5771 0.9141
-0.0024 0.7604 0.0017
0.0177 0.7712 0.0172
0.0510 0.7851 0.0331
0.0815 0.7959 0.0405
0.1134 0.8084 0.0479
0.2454 0.8263 0.0630
0.3385 0.8499 0.0824
0.5913 0.8582 0.1217
0.9712 0.8606 0.2316
0.0083 1.0029 0.1069
0.0881 1.0003 0.0947
0.1954 0.9837 0.0941
0.3238 0.9874 0.1028
0.4322 0.9789 0.0984
0.5569 0.9787 0.1051
0.7086 0.9930 0.1110
0.8403 0.9940 0.1177
1.0005 1.0001 0.1246
0.2020 -0.0187 0.1535
0.2270 0.0035 0.1551
0.3427 0.0027 0.1917
0.5607 -0.0032 0.2476
0.7677 0.0018 0.1611
0.9075 0.0091 0.0551
0.9881 0.0023 0.2131
1.0028 0.0019 0.3854
0.9979 -0.0001 0.5342
0.1784 0.0887 0.1858
0.2184 0.1053 0.1761
0.2834 0.1185 0.2012
0.4751 0.0879 0.2323
0.7230 0.0453 0.1111
0.9104 0.0114 0.0954
0.9866 0.0014 0.2517
1.0019 0.0017 0.4170
0.9978 -0.0004 0.5599
0.0026 0.2717 0.2159
0.1198 0.2572 0.2231
0.2500 0.2500 0.2500
0.4050 0.2318 0.2455
0.6268 0.1704 0.2016
0.8695 0.0705 0.2308
0.9876 0.0166 0.3435
1.0024 0.0213 0.4941
0.9982 0.0252 0.6311
-0.0001 0.4187 0.2400
0.0864 0.3974 0.2580
0.2246 0.3787 0.3042
0.2892 0.3911 0.3015
0.5771 0.3011 0.3479
0.8612 0.1798 0.3864
0.9877 0.1259 0.4820
1.0040 0.1366 0.6021
1.0001 0.1496 0.7078
-0.0013 0.5586 0.2431
0.0374 0.5462 0.2561
0.1609 0.5218 0.3107
0.2517 0.5202 0.3569
0.3312 0.5195 0.3888
0.6263 0.4229 0.4713
0.9530 0.3101 0.6086
1.0007 0.2796 0.7025
1.0010 0.2486 0.7584
-0.0054 0.6725 0.2327
0.0013 0.6611 0.2210
0.0596 0.6506 0.2489
0.1032 0.6544 0.2720
0.1426 0.6550 0.2799
0.2308 0.6350 0.3199
0.5861 0.5053 0.5179
0.9312 0.4025 0.7623
0.9973 0.3777 0.8725
-0.0032 0.7049 0.1213
-0.0040 0.7022 0.1264
0.0031 0.6947 0.1064
0.0134 0.6976 0.1015
0.0242 0.7066 0.0968
0.0409 0.7135 0.0840
0.1257 0.7100 0.1312
0.5046 0.6500 0.4563
0.9811 0.5692 0.9048
0.0005 0.7648 0.0306
0.0258 0.7786 0.0633
0.0624 0.7898 0.0824
0.0950 0.7949 0.0891
0.1338 0.8062 0.0990
0.2574 0.8261 0.1221
0.3530 0.8494 0.1470
0.5942 0.8578 0.2045
0.9732 0.8563 0.3304
0.0074 0.9918 0.1927
0.0832 0.9989 0.1876
0.1916 1.0014 0.1905
0.3127 0.9955 0.1971
0.4224 0.9832 0.1918
0.5541 0.9802 0.2085
0.7075 0.9923 0.2245
0.8402 0.9928 0.2354
1.0000 0.9993 0.2474
0.3637 -0.0224 0.3671
0.3827 -0.0076 0.3475
0.4537 -0.0005 0.3520
0.5793 -0.0012 0.3804
0.7690 -0.0029 0.4303
0.8992 -0.0019 0.4142
0.9879 0.0066 0.2046
1.0052 0.0056 0.1945
0.9967 -0.0005 0.3455
0.3354 0.0498 0.3056
0.3345 0.0723 0.2864
0.3696 0.0936 0.2924
0.4893 0.0880 0.3387
0.7224 0.0379 0.4079
0.9032 0.0048 0.3903
0.9940 0.0097 0.1360
1.0041 0.0036 0.2273
0.9970 -0.0008 0.3713
0.1013 0.2485 0.2947
0.2210 0.2210 0.3599
0.3444 0.2229 0.3088
0.4139 0.2331 0.3364
0.6186 0.1752 0.3775
0.8579 0.0857 0.2689
0.9876 0.0265 0.1678
1.0027 0.0175 0.3092
0.9975 0.0162 0.4462
0.0014 0.4288 0.3600
0.0877 0.4041 0.3484
0.2359 0.3829 0.3522
0.3750 0.3750 0.3750
0.5299 0.3532 0.3698
0.7446 0.2805 0.3290
0.9330 0.1714 0.3427
1.0008 0.1215 0.4244
1.0018 0.1240 0.5240
-0.0020 0.5665 0.3719
0.0383 0.5528 0.3718
0.1715 0.5258 0.3955
0.3390 0.5040 0.4384
0.4121 0.5144 0.4442
0.7023 0.4358 0.4542
0.9059 0.3440 0.4786
0.9946 0.2647 0.5351
0.9992 0.2206 0.6022
-0.0056 0.6690 0.3546
0.0016 0.6609 0.3462
0.0701 0.6537 0.3703
0.2418 0.6371 0.4383
0.3376 0.6321 0.4729
0.4302 0.6240 0.5039
0.6674 0.5160 0.5413
0.9524 0.3885 0.6392
0.9978 0.3573 0.7157
-0.0044 0.6988 0.2674
-0.0036 0.6969 0.2652
0.0088 0.6949 0.2608
0.0949 0.7102 0.3120
0.1509 0.7168 0.3387
0.2003 0.7197 0.3557
0.3139 0.7084 0.4061
0.6368 0.6224 0.5665
0.9421 0.5627 0.8034
0.0001 0.7728 0.2151
0.0342 0.7885 0.2374
0.0651 0.7940 0.2441
0.1044 0.7995 0.2518
0.1759 0.8105 0.2731
0.3013 0.8271 0.2893
0.4180 0.8468 0.3074
0.6321 0.8555 0.3431
0.9613 0.8537 0.4345
0.0073 0.9916 0.3259
0.0970 0.9979 0.3265
0.1977 1.0046 0.3236
0.3042 1.0010 0.3125
0.4227 0.9845 0.3148
0.5598 0.9833 0.3335
0.7060 0.9921 0.3458
0.8406 0.9926 0.3586
0.9999 0.9990 0.3716
0.4486 0.0001 0.5361
0.4838 0.0004 0.5380
0.5559 -0.0018 0.5431
0.6613 -0.0038 0.5558
0.7828 -0.0026 0.5715
0.9032 0.0001 0.5830
0.9839 0.0010 0.5820
0.9985 -0.0010 0.5248
1.0020 0.0135 0.3477
0.5016 0.0051 0.5318
0.5065 0.0171 0.5100
0.5308 0.0368 0.4884
0.6167 0.0406 0.5049
0.7388 0.0351 0.5347
0.9069 0.0071 0.5793
0.9841 0.0001 0.5820
0.9981 0.0000 0.5032
0.9588 0.0247 0.1958
0.4612 0.1019 0.4487
0.4595 0.1204 0.4287
0.4650 0.1658 0.4126
0.5136 0.1833 0.4296
0.6345 0.1733 0.4830
0.8564 0.0844 0.5601
0.9789 0.0224 0.5674
1.0037 0.0219 0.3898
0.9829 0.0280 0.2417
0.0458 0.4268 0.4549
0.0983 0.4077 0.4380
0.2922 0.3586 0.4509
0.4702 0.3459 0.4331
0.5419 0.3547 0.4670
0.7327 0.2902 0.5298
0.9168 0.1906 0.4525
1.0033 0.1198 0.2635
0.9979 0.1045 0.3311
-0.0020 0.5806 0.5001
0.0347 0.5652 0.4884
0.1719 0.5338 0.4747
0.3528 0.5089 0.4788
0.5000 0.5000 0.5000
0.6448 0.4851 0.4853
0.8177 0.4259 0.4320
0.9637 0.2992 0.4006
0.9970 0.1987 0.4345
-0.0055 0.6725 0.4786
0.0016 0.6678 0.4711
0.0720 0.6609 0.4801
0.2558 0.6412 0.5161
0.4525 0.6250 0.5625
0.5299 0.6345 0.5698
0.7982 0.5464 0.5451
0.9406 0.4361 0.5354
0.9968 0.3551 0.5561
-0.0045 0.6892 0.3807
-0.0032 0.6942 0.3859
0.0094 0.6988 0.3888
0.1110 0.7168 0.4369
0.3316 0.7331 0.5387
0.4359 0.7335 0.5792
0.5379 0.7296 0.6169
0.7744 0.6353 0.6284
0.9682 0.5579 0.7090
0.0017 0.7838 0.3614
0.0372 0.7934 0.3792
0.0651 0.7967 0.3811
0.1102 0.8050 0.3928
0.2641 0.8322 0.4535
0.3918 0.8452 0.4899
0.5014 0.8618 0.5010
0.6913 0.8655 0.5138
0.9649 0.8473 0.5407
0.0070 1.0016 0.4823
0.1066 1.0037 0.4746
0.1990 1.0055 0.4620
0.2921 1.0062 0.4423
0.4158 0.9891 0.4539
0.5770 0.9858 0.4764
0.7113 0.9924 0.4819
0.8517 0.9946 0.4915
1.0000 0.9994 0.5002
0.4968 0.0009 0.6796
0.5289 0.0010 0.6830
0.5932 0.0004 0.6893
0.6886 -0.0022 0.6999
0.7967 -0.0017 0.7075
0.9065 0.0006 0.7138
0.9863 0.0026 0.7200
1.0027 0.0017 0.7358
0.9994 0.0017 0.7410
0.5517 -0.0022 0.6865
0.5789 -0.0004 0.6870
0.6315 0.0024 0.6889
0.7114 0.0043 0.6944
0.8104 0.0058 0.7030
0.9153 0.0049 0.7140
0.9864 0.0026 0.7264
1.0018 0.0031 0.7376
0.9915 0.0032 0.7339
0.6384 0.0180 0.6843
0.6576 0.0234 0.6848
0.6571 0.0615 0.6472
0.6896 0.0836 0.6313
0.7742 0.0869 0.6512
0.8722 0.0800 0.6810
0.9828 0.0327 0.7317
1.0017 0.0322 0.7427
0.9902 0.0356 0.7326
0.4185 0.2733 0.5299
0.4697 0.2601 0.5409
0.5628 0.2467 0.5430
0.5964 0.2866 0.5378
0.6508 0.3007 0.5644
0.7513 0.2935 0.6230
0.9225 0.2053 0.7118
0.9918 0.1344 0.7158
0.9771 0.1093 0.6128
0.0156 0.5875 0.6129
0.0379 0.5824 0.6021
0.1371 0.5559 0.5693
0.3809 0.5022 0.5650
0.5969 0.4740 0.5665
0.6606 0.4851 0.5966
0.8131 0.4323 0.6508
0.9317 0.3183 0.5772
0.9152 0.2204 0.3058
-0.0049 0.6857 0.6023
-0.0014 0.6810 0.5955
0.0644 0.6713 0.5890
0.2550 0.6469 0.5854
0.4672 0.6308 0.6003
0.6250 0.6250 0.6250
0.7521 0.6103 0.5999
0.8923 0.5405 0.5261
0.9880 0.4199 0.4579
-0.0049 0.6954 0.5040
-0.0036 0.7009 0.5087
0.0098 0.7063 0.5108
0.1164 0.7235 0.5447
0.3498 0.7396 0.6166
0.5706 0.7442 0.6830
0.6515 0.7556 0.6972
0.9010 0.6810 0.6546
0.9795 0.6246 0.6343
0.0011 0.7917 0.4910
0.0378 0.7980 0.5034
0.0669 0.8025 0.5065
0.1206 0.8129 0.5195
0.2919 0.8426 0.5756
0.5146 0.8614 0.6638
0.6382 0.8709 0.6753
0.7501 0.8838 0.6571
0.9700 0.8551 0.6392
0.0053 1.0066 0.6142
0.1069 1.0047 0.6031
0.1982 1.0045 0.5924
0.2906 1.0046 0.5768
0.4110 1.0011 0.5869
0.5869 0.9982 0.6046
0.7243 0.9942 0.6201
0.8591 0.9959 0.6260
0.9996 0.9992 0.6306
0.5284 0.0018 0.8150
0.5568 0.0019 0.8171
0.6124 0.0020 0.8223
0.6974 0.0014 0.8299
0.8012 0.0002 0.8400
0.9096 0.0012 0.8474
0.9878 0.0032 0.8511
1.0038 0.0023 0.8704
1.0038 0.0022 0.8815
0.5769 -0.0009 0.8209
0.6039 -0.0004 0.8226
0.6534 0.0000 0.8269
0.7305 0.0002 0.8339
0.8265 0.0006 0.8433
0.9237 0.0021 0.8498
0.9874 0.0035 0.8586
1.0032 0.0056 0.8725
1.0037 0.0050 0.8833
0.6744 0.0086 0.8326
0.6941 0.0128 0.8344
0.7322 0.0160 0.8358
0.7920 0.0212 0.8370
0.8676 0.0265 0.8399
0.9440 0.0304 0.8491
0.9900 0.0357 0.8651
1.0041 0.0435 0.8785
1.0039 0.0519 0.8905
0.7245 0.1495 0.7889
0.7448 0.1507 0.7962
0.7983 0.1441 0.8176
0.7965 0.1840 0.7741
0.8304 0.2031 0.7690
0.8843 0.2106 0.7949
0.9364 0.2076 0.8310
0.9971 0.1498 0.8620
0.9986 0.1245 0.8515
0.2515 0.5294 0.6718
0.2978 0.5118 0.6558
0.4630 0.4681 0.6495
0.6849 0.4108 0.6944
0.7281 0.4279 0.6847
0.7557 0.4438 0.6997
0.8370 0.4304 0.7515
0.9561 0.3234 0.7983
0.9693 0.2260 0.7573
-0.0021 0.6973 0.7222
0.0041 0.6870 0.7101
0.0275 0.6805 0.6967
0.1631 0.6619 0.6645
0.4512 0.6249 0.6676
0.7171 0.5952 0.6924
0.7743 0.6080 0.7181
0.8960 0.5466 0.7618
0.9314 0.4558 0.6847
-0.0050 0.7056 0.6272
-0.0032 0.7111 0.6312
0.0067 0.7146 0.6304
0.1065 0.7287 0.6461
0.3464 0.7448 0.6839
0.5863 0.7500 0.7209
0.7500 0.7500 0.7500
0.8686 0.7392 0.7293
0.9635 0.7074 0.6734
0.0016 0.7978 0.6130
0.0392 0.8055 0.6271
0.0739 0.8111 0.6318
0.1489 0.8258 0.6501
0.3111 0.8509 0.6921
0.5329 0.8673 0.7506
0.7262 0.8707 0.7926
0.8259 0.8830 0.7665
0.9908 0.8655 0.7479
0.0049 1.0060 0.7405
0.1069 1.0037 0.7308
0.1964 1.0024 0.7225
0.2930 0.9986 0.7137
0.4323 1.0016 0.7210
0.5879 1.0011 0.7347
0.7392 0.9976 0.7552
0.8679 0.9988 0.7545
0.9998 0.9995 0.7553
0.5502 0.0037 0.9403
0.5762 0.0049 0.9406
0.6261 0.0049 0.9440
0.7022 0.0052 0.9493
0.7977 0.0061 0.9555
0.9027 0.0064 0.9627
0.9870 0.0019 0.9693
1.0029 0.0010 0.9839
1.0032 0.0014 0.9909
0.5927 0.0014 0.9423
0.6192 0.0018 0.9402
0.6647 0.0022 0.9430
0.7353 0.0026 0.9472
0.8258 0.0032 0.9525
0.9233 0.0034 0.9584
0.9877 0.0049 0.9656
1.0031 0.0096 0.9756
1.0027 0.0106 0.9895
0.6811 0.0123 0.9503
0.7042 0.0153 0.9480
0.7422 0.0165 0.9499
0.8028 0.0188 0.9532
0.8809 0.0234 0.9573
0.9557 0.0309 0.9633
0.9952 0.0435 0.9713
1.0038 0.0562 0.9773
1.0025 0.0665 0.9884
0.7902 0.1307 0.9528
0.8102 0.1368 0.9498
0.8443 0.1374 0.9554
0.8904 0.1418 0.9575
0.9380 0.1523 0.9560
0.9736 0.1650 0.9600
0.9910 0.1730 0.9669
1.0005 0.1504 0.9668
0.9995 0.1133 0.9314
0.7594 0.3854 0.8424
0.7500 0.3821 0.8256
0.8307 0.3606 0.8715
0.9101 0.3401 0.9178
0.9113 0.3530 0.8997
0.9189 0.3600 0.8973
0.9352 0.3507 0.8998
0.9684 0.3151 0.9051
1.0036 0.2278 0.8965
0.0848 0.6724 0.7881
0.1170 0.6617 0.7700
0.2079 0.6410 0.7427
0.4414 0.5843 0.7178
0.7231 0.5199 0.7675
0.8308 0.5354 0.8012
0.8566 0.5509 0.8134
0.9205 0.5429 0.8585
0.9906 0.4531 0.8925
-0.0007 0.7105 0.7430
0.0012 0.7182 0.7471
0.0079 0.7191 0.7429
0.0386 0.7235 0.7373
0.2058 0.7368 0.7386
0.5368 0.7381 0.7726
0.8376 0.7164 0.8380
0.8868 0.7371 0.8521
0.9874 0.7051 0.8970
0.0031 0.8079 0.7355
0.0478 0.8171 0.7548
0.0972 0.8257 0.7681
0.1700 0.8380 0.7828
0.3098 0.8559 0.8013
0.5393 0.8717 0.8349
0.7365 0.8751 0.8569
0.8750 0.8750 0.8750
0.9993 0.8731 0.8745
0.0043 1.0043 0.8646
0.1035 1.0002 0.8545
0.1994 0.9967 0.8486
0.3210 0.9989 0.8549
0.4525 1.0015 0.8609
0.5920 1.0002 0.8653
0.7431 0.9991 0.8750
0.8738 0.9995 0.8793
1.0000 0.9999 0.8762
0.5713 0.0031 1.0011
0.5939 0.0040 1.0018
0.6412 0.0044 1.0022
0.7142 0.0043 1.0025
0.8069 0.0041 1.0030
0.9108 0.0040 1.0036
0.9936 0.0006 1.0019
1.0040 0.0021 1.0044
1.0045 0.0023 1.0045
0.6112 0.0007 1.0006
0.6327 0.0017 1.0023
0.6757 0.0022 1.0028
0.7437 0.0022 1.0028
0.8314 0.0030 1.0035
0.9285 0.0032 1.0033
0.9939 0.0042 1.0013
1.0039 0.0108 1.0044
1.0048 0.0169 1.0049
0.6969 0.0103 1.0016
0.7153 0.0128 1.0023
0.7512 0.0138 1.0028
0.8103 0.0166 1.0034
0.8874 0.0216 1.0039
0.9680 0.0274 1.0018
1.0014 0.0449 1.0033
1.0052 0.0684 1.0055
1.0042 0.0817 1.0047
0.8116 0.1328 1.0043
0.8254 0.1382 1.0042
0.8550 0.1407 1.0044
0.9038 0.1457 1.0040
0.9610 0.1562 1.0014
0.9939 0.1740 1.0009
1.0018 0.1855 1.0034
1.0036 0.1593 1.0040
1.0032 0.1070 1.0045
0.9002 0.3424 0.9893
0.9161 0.3403 0.9908
0.9382 0.3376 0.9926
0.9726 0.3325 0.9952
0.9884 0.3305 0.9975
0.9925 0.3296 0.9983
0.9948 0.3018 0.9994
0.9986 0.2538 1.0016
1.0039 0.2219 1.0036
0.6383 0.5394 0.8714
0.6251 0.5396 0.8683
0.6233 0.5383 0.8376
0.8289 0.4747 0.9082
0.9328 0.4328 0.9664
0.9669 0.4405 0.9791
0.9797 0.4433 0.9872
0.9898 0.4466 0.9953
1.0035 0.4489 1.0034
0.0224 0.7096 0.8414
0.0306 0.7135 0.8421
0.0479 0.7141 0.8352
0.1164 0.7066 0.8260
0.3363 0.6765 0.7891
0.7326 0.6332 0.8279
0.9287 0.6580 0.9541
0.9599 0.6865 0.9832
1.0009 0.7041 0.9991
-0.0065 0.8258 0.8802
0.0542 0.8294 0.8819
0.1069 0.8353 0.8855
0.1614 0.8422 0.8855
0.2463 0.8519 0.8871
0.4883 0.8627 0.9565
0.7444 0.8634 0.9813
0.8866 0.8697 0.9967
0.9996 0.8734 1.0002
0.0050 1.0009 0.9971
0.1063 0.9987 0.9942
0.2188 0.9997 0.9963
0.3402 1.0017 0.9982
0.4591 1.0015 0.9990
0.5985 0.9999 1.0002
0.7469 0.9991 0.9998
0.8752 0.9998 1.0003
1.0000 1.0000 1.0000
