lutCreatorJs.cube
TITLE lutCreatorJs_25
LUT_3D_SIZE 9
0.352941 0.000000 0.000000
0.392157 0.000000 0.000000
0.498039 0.000000 0.000000
0.627451 0.000000 0.043137
0.752941 0.000000 0.211765
0.866667 0.000000 0.364706
0.976471 0.000000 0.521569
1.000000 0.000000 0.674510
1.000000 0.000000 0.831373
0.000000 0.207843 0.000000
0.000000 0.215686 0.000000
0.560784 0.000000 0.000000
0.670588 0.000000 0.125490
0.780392 0.000000 0.262745
0.886275 0.000000 0.403922
0.992157 0.000000 0.549020
1.000000 0.000000 0.698039
1.000000 0.000000 0.850980
0.000000 0.298039 0.000000
0.000000 0.305882 0.000000
0.000000 0.329412 0.000000
0.749020 0.000000 0.262745
0.839216 0.000000 0.364706
0.933333 0.000000 0.482353
1.000000 0.000000 0.611765
1.000000 0.000000 0.752941
1.000000 0.000000 0.898039
0.000000 0.419608 0.000000
0.000000 0.427451 0.000000
0.000000 0.443137 0.000000
0.000000 0.470588 0.000000
0.917647 0.066667 0.513725
0.992157 0.086275 0.607843
1.000000 0.133333 0.721569
1.000000 0.200000 0.847059
1.000000 0.266667 0.980392
0.000000 0.549020 0.000000
0.000000 0.552941 0.000000
0.000000 0.564706 0.000000
0.000000 0.584314 0.000000
0.000000 0.607843 0.000000
1.000000 0.341176 0.772549
1.000000 0.360784 0.866667
1.000000 0.388235 0.976471
1.000000 0.231373 0.941176
0.000000 0.670588 0.000000
0.000000 0.674510 0.000000
0.000000 0.682353 0.000000
0.000000 0.694118 0.000000
0.000000 0.713725 0.000000
0.000000 0.741176 0.000000
0.000000 0.619608 0.000000
1.000000 0.376471 0.968627
1.000000 0.392157 1.000000
0.000000 0.639216 0.000000
0.000000 0.639216 0.000000
0.000000 0.647059 0.000000
0.000000 0.654902 0.000000
0.000000 0.666667 0.000000
0.000000 0.682353 0.000000
0.000000 0.701961 0.000000
0.000000 0.725490 0.000000
1.000000 0.529412 1.000000
0.000000 0.733333 0.000000
0.000000 0.737255 0.000000
0.000000 0.741176 0.000000
0.000000 0.745098 0.000000
0.000000 0.756863 0.000000
0.000000 0.768627 0.000000
0.000000 0.784314 0.000000
0.874510 0.874510 0.000000
1.000000 0.874510 0.000000
0.000000 1.000000 0.000000
0.125490 1.000000 0.000000
0.250980 1.000000 0.000000
0.376471 1.000000 0.000000
0.501961 1.000000 0.000000
0.623529 1.000000 0.000000
0.749020 1.000000 0.000000
0.874510 1.000000 0.000000
1.000000 1.000000 0.000000
0.313725 0.000000 0.133333
0.368627 0.000000 0.141176
0.490196 0.000000 0.152941
0.643137 0.000000 0.000000
0.768627 0.000000 0.066667
0.890196 0.000000 0.223529
1.000000 0.000000 0.388235
1.000000 0.000000 0.556863
1.000000 0.000000 0.725490
0.000000 0.211765 0.117647
0.000000 0.219608 0.117647
0.580392 0.000000 0.000000
0.686275 0.000000 0.000000
0.800000 0.000000 0.121569
0.909804 0.000000 0.266667
1.000000 0.000000 0.423529
1.000000 0.000000 0.584314
1.000000 0.000000 0.749020
0.000000 0.301961 0.117647
0.000000 0.309804 0.117647
0.000000 0.329412 0.113725
0.768627 0.000000 0.125490
0.862745 0.000000 0.239216
0.956863 0.000000 0.360784
1.000000 0.000000 0.501961
1.000000 0.000000 0.650980
1.000000 0.000000 0.803922
0.000000 0.423529 0.113725
0.000000 0.431373 0.113725
0.000000 0.447059 0.109804
0.000000 0.470588 0.101961
0.941176 0.019608 0.407843
1.000000 0.043137 0.509804
1.000000 0.105882 0.627451
1.000000 0.176471 0.756863
1.000000 0.250980 0.898039
0.000000 0.552941 0.109804
0.000000 0.556863 0.109804
0.000000 0.564706 0.105882
0.000000 0.584314 0.098039
0.000000 0.611765 0.086275
1.000000 0.333333 0.690196
1.000000 0.352941 0.788235
1.000000 0.380392 0.901961
1.000000 0.215686 0.874510
0.000000 0.674510 0.105882
0.000000 0.674510 0.101961
0.000000 0.682353 0.098039
0.000000 0.698039 0.094118
0.000000 0.717647 0.082353
0.000000 0.741176 0.062745
0.000000 0.619608 0.000000
1.000000 0.368627 0.905882
1.000000 0.384314 1.000000
0.000000 0.639216 0.000000
0.000000 0.643137 0.000000
0.000000 0.647059 0.000000
0.000000 0.654902 0.000000
0.000000 0.666667 0.000000
0.000000 0.682353 0.000000
0.000000 0.701961 0.000000
0.000000 0.725490 0.000000
1.000000 0.525490 1.000000
0.000000 0.733333 0.000000
0.000000 0.737255 0.000000
0.000000 0.741176 0.000000
0.000000 0.745098 0.000000
0.000000 0.756863 0.000000
0.000000 0.768627 0.000000
0.000000 0.784314 0.000000
0.874510 0.874510 0.125490
1.000000 0.874510 0.125490
0.000000 1.000000 0.125490
0.125490 1.000000 0.125490
0.250980 1.000000 0.125490
0.376471 1.000000 0.125490
0.501961 1.000000 0.125490
0.623529 1.000000 0.125490
0.749020 1.000000 0.125490
0.874510 1.000000 0.125490
1.000000 1.000000 0.125490
0.337255 0.000000 0.262745
0.396078 0.000000 0.266667
0.505882 0.000000 0.278431
0.635294 0.000000 0.294118
0.792157 0.000000 0.000000
0.909804 0.000000 0.015686
1.000000 0.000000 0.207843
1.000000 0.000000 0.376471
1.000000 0.000000 0.552941
0.447059 0.000000 0.278431
0.486275 0.000000 0.282353
0.572549 0.000000 0.290196
0.678431 0.000000 0.301961
0.819608 0.000000 0.000000
0.933333 0.000000 0.074510
1.000000 0.000000 0.243137
1.000000 0.000000 0.407843
1.000000 0.000000 0.580392
0.000000 0.309804 0.247059
0.000000 0.317647 0.247059
0.000000 0.341176 0.243137
0.792157 0.000000 0.000000
0.886275 0.000000 0.035294
0.984314 0.000000 0.184314
1.000000 0.000000 0.329412
1.000000 0.000000 0.482353
1.000000 0.000000 0.643137
0.000000 0.431373 0.247059
0.000000 0.439216 0.243137
0.000000 0.450980 0.243137
0.000000 0.478431 0.239216
0.972549 0.000000 0.243137
1.000000 0.000000 0.345098
1.000000 0.050980 0.466667
1.000000 0.141176 0.603922
1.000000 0.223529 0.745098
0.000000 0.556863 0.243137
0.000000 0.560784 0.243137
0.000000 0.572549 0.239216
0.000000 0.588235 0.239216
0.000000 0.615686 0.231373
1.000000 0.317647 0.545098
1.000000 0.337255 0.643137
1.000000 0.364706 0.760784
1.000000 0.184314 0.737255
0.000000 0.674510 0.239216
0.000000 0.678431 0.239216
0.000000 0.686275 0.239216
0.000000 0.701961 0.235294
0.000000 0.721569 0.231373
0.000000 0.745098 0.227451
1.000000 0.345098 0.694118
1.000000 0.352941 0.784314
1.000000 0.368627 0.882353
0.000000 0.643137 0.078431
0.000000 0.643137 0.074510
0.000000 0.647059 0.070588
0.000000 0.654902 0.054902
0.000000 0.666667 0.031373
0.000000 0.682353 0.000000
0.000000 0.701961 0.000000
0.000000 0.725490 0.000000
1.000000 0.513725 1.000000
0.000000 0.737255 0.000000
0.000000 0.737255 0.000000
0.000000 0.741176 0.000000
0.000000 0.749020 0.000000
0.000000 0.756863 0.000000
0.000000 0.768627 0.000000
0.000000 0.784314 0.000000
0.874510 0.874510 0.250980
1.000000 0.874510 0.250980
0.000000 1.000000 0.250980
0.125490 1.000000 0.250980
0.250980 1.000000 0.250980
0.376471 1.000000 0.250980
0.501961 1.000000 0.250980
0.623529 1.000000 0.250980
0.749020 1.000000 0.250980
0.874510 1.000000 0.250980
1.000000 1.000000 0.250980
0.384314 0.000000 0.396078
0.435294 0.000000 0.400000
0.529412 0.000000 0.411765
0.643137 0.000000 0.423529
0.768627 0.000000 0.435294
0.890196 0.000000 0.450980
1.000000 0.000000 0.000000
1.000000 0.000000 0.184314
1.000000 0.000000 0.364706
0.478431 0.000000 0.411765
0.513725 0.000000 0.411765
0.588235 0.000000 0.419608
0.686275 0.000000 0.431373
0.800000 0.000000 0.443137
0.917647 0.000000 0.454902
1.000000 0.000000 0.000000
1.000000 0.000000 0.219608
1.000000 0.000000 0.392157
0.000000 0.329412 0.372549
0.000000 0.337255 0.372549
0.690196 0.000000 0.439216
0.768627 0.000000 0.447059
0.866667 0.000000 0.454902
1.000000 0.000000 0.000000
1.000000 0.000000 0.133333
1.000000 0.000000 0.294118
1.000000 0.000000 0.454902
0.000000 0.443137 0.372549
0.000000 0.450980 0.372549
0.000000 0.462745 0.372549
0.000000 0.490196 0.368627
1.000000 0.000000 0.000000
1.000000 0.000000 0.149020
1.000000 0.000000 0.282353
1.000000 0.101961 0.419608
1.000000 0.192157 0.564706
0.000000 0.564706 0.372549
0.000000 0.568627 0.368627
0.000000 0.580392 0.368627
0.000000 0.596078 0.368627
0.000000 0.623529 0.364706
1.000000 0.301961 0.364706
1.000000 0.321569 0.466667
1.000000 0.349020 0.584314
1.000000 0.149020 0.572549
0.000000 0.682353 0.368627
0.000000 0.686275 0.368627
0.000000 0.694118 0.368627
0.000000 0.705882 0.364706
0.000000 0.725490 0.364706
0.000000 0.749020 0.360784
1.000000 0.329412 0.533333
1.000000 0.333333 0.623529
1.000000 0.349020 0.721569
0.000000 0.647059 0.235294
0.000000 0.647059 0.235294
0.000000 0.650980 0.231373
0.000000 0.658824 0.227451
0.000000 0.670588 0.219608
0.000000 0.686275 0.211765
0.000000 0.705882 0.200000
1.000000 0.486275 0.811765
1.000000 0.498039 0.898039
0.000000 0.741176 0.203922
0.000000 0.741176 0.203922
0.000000 0.745098 0.200000
0.000000 0.752941 0.196078
0.000000 0.760784 0.188235
0.000000 0.772549 0.180392
0.000000 0.788235 0.164706
0.874510 0.874510 0.376471
1.000000 0.874510 0.376471
0.000000 1.000000 0.376471
0.125490 1.000000 0.376471
0.250980 1.000000 0.376471
0.376471 1.000000 0.376471
0.501961 1.000000 0.376471
0.623529 1.000000 0.376471
0.749020 1.000000 0.376471
0.874510 1.000000 0.376471
1.000000 1.000000 0.376471
0.439216 0.000000 0.533333
0.474510 0.000000 0.537255
0.552941 0.000000 0.545098
0.658824 0.000000 0.556863
0.776471 0.000000 0.568627
0.894118 0.000000 0.580392
1.000000 0.000000 0.592157
1.000000 0.000000 0.607843
1.000000 0.000000 0.156863
0.513725 0.000000 0.545098
0.541176 0.000000 0.545098
0.603922 0.000000 0.552941
0.698039 0.000000 0.560784
0.803922 0.000000 0.572549
0.917647 0.000000 0.584314
1.000000 0.000000 0.596078
1.000000 0.000000 0.607843
1.000000 0.000000 0.188235
0.635294 0.000000 0.564706
0.654902 0.000000 0.564706
0.701961 0.000000 0.568627
0.776471 0.000000 0.576471
0.870588 0.000000 0.584314
0.968627 0.000000 0.596078
1.000000 0.000000 0.603922
1.000000 0.000000 0.050980
1.000000 0.000000 0.262745
0.000000 0.462745 0.498039
0.000000 0.466667 0.498039
0.000000 0.482353 0.498039
0.886275 0.039216 0.596078
0.960784 0.019608 0.603922
1.000000 0.031373 0.611765
1.000000 0.082353 0.619608
1.000000 0.062745 0.223529
1.000000 0.168627 0.376471
0.000000 0.576471 0.498039
0.000000 0.580392 0.498039
0.000000 0.592157 0.498039
0.000000 0.607843 0.494118
0.000000 0.631373 0.494118
1.000000 0.294118 0.152941
1.000000 0.309804 0.274510
1.000000 0.337255 0.396078
1.000000 0.109804 0.392157
0.000000 0.690196 0.498039
0.000000 0.694118 0.498039
0.000000 0.701961 0.494118
0.000000 0.713725 0.494118
0.000000 0.733333 0.494118
0.000000 0.756863 0.490196
1.000000 0.313725 0.356863
1.000000 0.317647 0.447059
1.000000 0.329412 0.549020
0.000000 0.650980 0.360784
0.000000 0.654902 0.360784
0.000000 0.658824 0.356863
0.000000 0.666667 0.356863
0.000000 0.678431 0.349020
0.000000 0.694118 0.345098
0.000000 0.709804 0.337255
1.000000 0.474510 0.639216
1.000000 0.482353 0.725490
0.000000 0.745098 0.337255
0.000000 0.745098 0.337255
0.000000 0.749020 0.333333
0.000000 0.756863 0.333333
0.000000 0.764706 0.329412
0.000000 0.776471 0.321569
0.000000 0.792157 0.313725
0.874510 0.874510 0.501961
1.000000 0.874510 0.501961
0.000000 1.000000 0.501961
0.125490 1.000000 0.501961
0.250980 1.000000 0.501961
0.376471 1.000000 0.501961
0.501961 1.000000 0.501961
0.623529 1.000000 0.501961
0.749020 1.000000 0.501961
0.874510 1.000000 0.501961
1.000000 1.000000 0.501961
0.482353 0.000000 0.662745
0.509804 0.000000 0.666667
0.576471 0.000000 0.674510
0.670588 0.000000 0.682353
0.780392 0.000000 0.694118
0.898039 0.000000 0.705882
1.000000 0.000000 0.721569
1.000000 0.000000 0.733333
1.000000 0.000000 0.745098
0.541176 0.000000 0.674510
0.564706 0.000000 0.678431
0.623529 0.000000 0.682353
0.709804 0.000000 0.690196
0.811765 0.000000 0.701961
0.921569 0.000000 0.713725
1.000000 0.000000 0.725490
1.000000 0.000000 0.737255
1.000000 0.000000 0.749020
0.650980 0.000000 0.690196
0.670588 0.000000 0.694118
0.713725 0.000000 0.698039
0.784314 0.000000 0.701961
0.874510 0.000000 0.713725
0.972549 0.000000 0.721569
1.000000 0.000000 0.733333
1.000000 0.000000 0.745098
1.000000 0.000000 0.752941
0.784314 0.082353 0.713725
0.800000 0.078431 0.713725
0.831373 0.066667 0.717647
0.890196 0.054902 0.721569
0.964706 0.054902 0.729412
1.000000 0.074510 0.737255
1.000000 0.113725 0.745098
1.000000 0.168627 0.752941
1.000000 0.223529 0.764706
0.000000 0.592157 0.619608
0.000000 0.596078 0.619608
0.000000 0.607843 0.619608
0.000000 0.623529 0.615686
1.000000 0.317647 0.749020
1.000000 0.325490 0.752941
1.000000 0.341176 0.760784
1.000000 0.364706 0.768627
1.000000 0.066667 0.203922
0.000000 0.705882 0.619608
0.000000 0.705882 0.619608
0.000000 0.713725 0.619608
0.000000 0.725490 0.615686
0.000000 0.745098 0.615686
0.000000 0.619608 0.482353
1.000000 0.301961 0.156863
1.000000 0.305882 0.266667
1.000000 0.317647 0.372549
0.000000 0.658824 0.478431
0.000000 0.662745 0.478431
0.000000 0.666667 0.474510
0.000000 0.674510 0.474510
0.000000 0.686275 0.466667
0.000000 0.698039 0.462745
0.000000 0.717647 0.454902
1.000000 0.462745 0.466667
1.000000 0.470588 0.556863
0.000000 0.749020 0.454902
0.000000 0.752941 0.454902
0.000000 0.756863 0.454902
0.000000 0.760784 0.450980
0.000000 0.772549 0.447059
0.000000 0.784314 0.443137
0.749020 0.874510 0.623529
0.874510 0.874510 0.623529
1.000000 0.874510 0.623529
0.000000 1.000000 0.623529
0.125490 1.000000 0.623529
0.250980 1.000000 0.623529
0.376471 1.000000 0.623529
0.501961 1.000000 0.623529
0.623529 1.000000 0.623529
0.749020 1.000000 0.623529
0.874510 1.000000 0.623529
1.000000 1.000000 0.623529
0.517647 0.000000 0.803922
0.541176 0.000000 0.803922
0.600000 0.000000 0.811765
0.686275 0.000000 0.819608
0.788235 0.000000 0.827451
0.901961 0.000000 0.839216
1.000000 0.000000 0.850980
1.000000 0.000000 0.866667
1.000000 0.000000 0.878431
0.568627 0.000000 0.811765
0.592157 0.000000 0.811765
0.643137 0.000000 0.815686
0.721569 0.000000 0.823529
0.815686 0.000000 0.835294
0.921569 0.000000 0.843137
1.000000 0.000000 0.854902
1.000000 0.000000 0.866667
1.000000 0.000000 0.878431
0.666667 0.000000 0.823529
0.686275 0.000000 0.827451
0.725490 0.000000 0.831373
0.792157 0.000000 0.835294
0.878431 0.000000 0.843137
0.972549 0.000000 0.854902
1.000000 0.000000 0.862745
1.000000 0.000000 0.874510
1.000000 0.000000 0.886275
0.796078 0.090196 0.847059
0.807843 0.086275 0.847059
0.839216 0.082353 0.850980
0.894118 0.082353 0.854902
0.964706 0.090196 0.858824
1.000000 0.113725 0.866667
1.000000 0.149020 0.874510
1.000000 0.196078 0.886275
1.000000 0.250980 0.894118
0.000000 0.615686 0.745098
0.000000 0.619608 0.745098
0.000000 0.627451 0.745098
1.000000 0.325490 0.874510
1.000000 0.329412 0.878431
1.000000 0.337255 0.886275
1.000000 0.352941 0.894118
1.000000 0.149020 0.756863
1.000000 0.164706 0.756863
0.000000 0.721569 0.745098
0.000000 0.721569 0.745098
0.000000 0.729412 0.745098
0.000000 0.741176 0.741176
0.000000 0.760784 0.741176
1.000000 0.333333 0.756863
1.000000 0.333333 0.756863
1.000000 0.333333 0.756863
1.000000 0.341176 0.756863
0.000000 0.670588 0.596078
0.000000 0.670588 0.596078
0.000000 0.674510 0.596078
0.000000 0.682353 0.592157
0.000000 0.694118 0.588235
0.000000 0.709804 0.584314
0.000000 0.725490 0.576471
1.000000 0.454902 0.274510
1.000000 0.462745 0.372549
0.000000 0.756863 0.576471
0.000000 0.760784 0.576471
0.000000 0.764706 0.572549
0.000000 0.768627 0.572549
0.000000 0.780392 0.568627
0.000000 0.792157 0.564706
0.749020 0.874510 0.749020
0.874510 0.874510 0.749020
1.000000 0.874510 0.749020
0.000000 1.000000 0.749020
0.125490 1.000000 0.749020
0.250980 1.000000 0.749020
0.376471 1.000000 0.749020
0.501961 1.000000 0.749020
0.623529 1.000000 0.749020
0.749020 1.000000 0.749020
0.874510 1.000000 0.749020
1.000000 1.000000 0.749020
0.545098 0.000000 0.941176
0.568627 0.000000 0.941176
0.619608 0.000000 0.945098
0.698039 0.000000 0.952941
0.796078 0.000000 0.964706
0.901961 0.000000 0.972549
1.000000 0.000000 0.984314
1.000000 0.000000 0.996078
1.000000 0.000000 1.000000
0.592157 0.000000 0.945098
0.611765 0.000000 0.949020
0.658824 0.000000 0.952941
0.729412 0.000000 0.960784
0.823529 0.000000 0.968627
0.925490 0.000000 0.976471
1.000000 0.000000 0.988235
1.000000 0.000000 1.000000
1.000000 0.000000 1.000000
0.682353 0.000000 0.960784
0.698039 0.000000 0.960784
0.737255 0.000000 0.964706
0.800000 0.000000 0.968627
0.882353 0.000000 0.976471
0.972549 0.000000 0.984314
1.000000 0.000000 0.996078
1.000000 0.000000 1.000000
1.000000 0.078431 1.000000
0.803922 0.109804 0.980392
0.815686 0.109804 0.980392
0.847059 0.109804 0.980392
0.898039 0.113725 0.988235
0.968627 0.129412 0.992157
1.000000 0.152941 1.000000
1.000000 0.184314 1.000000
1.000000 0.227451 1.000000
1.000000 0.000000 0.878431
0.937255 0.329412 1.000000
0.945098 0.329412 1.000000
0.972549 0.333333 1.000000
1.000000 0.337255 1.000000
1.000000 0.341176 1.000000
1.000000 0.352941 1.000000
1.000000 0.368627 1.000000
1.000000 0.168627 0.878431
1.000000 0.184314 0.878431
0.000000 0.737255 0.870588
0.000000 0.741176 0.870588
0.000000 0.749020 0.870588
0.000000 0.760784 0.870588
1.000000 0.341176 0.882353
1.000000 0.337255 0.882353
1.000000 0.341176 0.882353
1.000000 0.345098 0.882353
1.000000 0.352941 0.882353
0.000000 0.682353 0.713725
0.000000 0.682353 0.713725
0.000000 0.686275 0.713725
0.000000 0.694118 0.709804
0.000000 0.705882 0.705882
0.000000 0.721569 0.701961
1.000000 0.478431 0.882353
1.000000 0.482353 0.882353
1.000000 0.490196 0.882353
0.000000 0.768627 0.694118
0.000000 0.768627 0.694118
0.000000 0.772549 0.694118
0.000000 0.780392 0.690196
0.000000 0.788235 0.686275
0.000000 0.800000 0.682353
0.749020 0.874510 0.874510
0.874510 0.874510 0.874510
1.000000 0.874510 0.874510
0.000000 1.000000 0.874510
0.125490 1.000000 0.874510
0.250980 1.000000 0.874510
0.376471 1.000000 0.874510
0.501961 1.000000 0.874510
0.623529 1.000000 0.874510
0.749020 1.000000 0.874510
0.874510 1.000000 0.874510
1.000000 1.000000 0.874510
0.568627 0.000000 1.000000
0.588235 0.000000 1.000000
0.635294 0.000000 1.000000
0.709804 0.000000 1.000000
0.803922 0.000000 1.000000
0.905882 0.000000 1.000000
1.000000 0.000000 1.000000
1.000000 0.000000 1.000000
1.000000 0.000000 1.000000
0.611765 0.000000 1.000000
0.627451 0.000000 1.000000
0.670588 0.000000 1.000000
0.741176 0.000000 1.000000
0.827451 0.000000 1.000000
0.925490 0.000000 1.000000
1.000000 0.000000 1.000000
1.000000 0.000000 1.000000
1.000000 0.000000 1.000000
0.694118 0.000000 1.000000
0.709804 0.000000 1.000000
0.745098 0.000000 1.000000
0.803922 0.000000 1.000000
0.882353 0.000000 1.000000
0.972549 0.000000 1.000000
1.000000 0.000000 1.000000
1.000000 0.023529 1.000000
1.000000 0.156863 1.000000
0.807843 0.137255 1.000000
0.823529 0.141176 1.000000
0.850980 0.145098 1.000000
0.901961 0.152941 1.000000
0.968627 0.168627 1.000000
1.000000 0.192157 1.000000
1.000000 0.223529 1.000000
1.000000 0.262745 1.000000
1.000000 0.000000 1.000000
0.937255 0.341176 1.000000
0.949020 0.345098 1.000000
0.972549 0.345098 1.000000
1.000000 0.349020 1.000000
1.000000 0.356863 1.000000
1.000000 0.372549 1.000000
1.000000 0.388235 1.000000
1.000000 0.192157 1.000000
1.000000 0.207843 1.000000
1.000000 0.498039 1.000000
1.000000 0.498039 1.000000
1.000000 0.498039 1.000000
0.976471 0.349020 1.000000
1.000000 0.345098 1.000000
1.000000 0.345098 1.000000
1.000000 0.349020 1.000000
1.000000 0.352941 1.000000
1.000000 0.364706 1.000000
0.000000 0.698039 0.831373
0.000000 0.698039 0.831373
0.000000 0.701961 0.831373
0.000000 0.709804 0.827451
0.000000 0.721569 0.823529
1.000000 0.482353 1.000000
1.000000 0.486275 1.000000
1.000000 0.490196 1.000000
1.000000 0.498039 1.000000
0.000000 0.780392 0.811765
0.000000 0.784314 0.811765
0.000000 0.784314 0.811765
0.000000 0.792157 0.807843
0.000000 0.800000 0.807843
0.623529 0.874510 1.000000
0.749020 0.874510 1.000000
0.874510 0.874510 1.000000
1.000000 0.874510 1.000000
0.000000 1.000000 1.000000
0.125490 1.000000 1.000000
0.250980 1.000000 1.000000
0.376471 1.000000 1.000000
0.501961 1.000000 1.000000
0.623529 1.000000 1.000000
0.749020 1.000000 1.000000
0.874510 1.000000 1.000000
1.000000 1.000000 1.000000
