lutCreatorJs.cube
TITLE lutCreatorJs_25
LUT_3D_SIZE 5
0.352941 0.000000 0.000000
0.498039 0.000000 0.000000
0.752941 0.000000 0.211765
0.976471 0.000000 0.521569
1.000000 0.000000 0.831373
0.000000 0.298039 0.000000
0.000000 0.329412 0.000000
0.839216 0.000000 0.364706
1.000000 0.000000 0.611765
1.000000 0.000000 0.898039
0.000000 0.549020 0.000000
0.000000 0.564706 0.000000
0.000000 0.607843 0.000000
1.000000 0.360784 0.866667
1.000000 0.231373 0.941176
0.000000 0.639216 0.000000
0.000000 0.647059 0.000000
0.000000 0.666667 0.000000
0.000000 0.701961 0.000000
1.000000 0.529412 1.000000
0.000000 1.000000 0.000000
0.250980 1.000000 0.000000
0.501961 1.000000 0.000000
0.749020 1.000000 0.000000
1.000000 1.000000 0.000000
0.337255 0.000000 0.262745
0.505882 0.000000 0.278431
0.792157 0.000000 0.000000
1.000000 0.000000 0.207843
1.000000 0.000000 0.552941
0.000000 0.309804 0.247059
0.000000 0.341176 0.243137
0.886275 0.000000 0.035294
1.000000 0.000000 0.329412
1.000000 0.000000 0.643137
0.000000 0.556863 0.243137
0.000000 0.572549 0.239216
0.000000 0.615686 0.231373
1.000000 0.337255 0.643137
1.000000 0.184314 0.737255
0.000000 0.643137 0.078431
0.000000 0.647059 0.070588
0.000000 0.666667 0.031373
0.000000 0.701961 0.000000
1.000000 0.513725 1.000000
0.000000 1.000000 0.250980
0.250980 1.000000 0.250980
0.501961 1.000000 0.250980
0.749020 1.000000 0.250980
1.000000 1.000000 0.250980
0.439216 0.000000 0.533333
0.552941 0.000000 0.545098
0.776471 0.000000 0.568627
1.000000 0.000000 0.592157
1.000000 0.000000 0.156863
0.635294 0.000000 0.564706
0.701961 0.000000 0.568627
0.870588 0.000000 0.584314
1.000000 0.000000 0.603922
1.000000 0.000000 0.262745
0.000000 0.576471 0.498039
0.000000 0.592157 0.498039
0.000000 0.631373 0.494118
1.000000 0.309804 0.274510
1.000000 0.109804 0.392157
0.000000 0.650980 0.360784
0.000000 0.658824 0.356863
0.000000 0.678431 0.349020
0.000000 0.709804 0.337255
1.000000 0.482353 0.725490
0.000000 1.000000 0.501961
0.250980 1.000000 0.501961
0.501961 1.000000 0.501961
0.749020 1.000000 0.501961
1.000000 1.000000 0.501961
0.517647 0.000000 0.803922
0.600000 0.000000 0.811765
0.788235 0.000000 0.827451
1.000000 0.000000 0.850980
1.000000 0.000000 0.878431
0.666667 0.000000 0.823529
0.725490 0.000000 0.831373
0.878431 0.000000 0.843137
1.000000 0.000000 0.862745
1.000000 0.000000 0.886275
0.000000 0.615686 0.745098
0.000000 0.627451 0.745098
1.000000 0.329412 0.878431
1.000000 0.352941 0.894118
1.000000 0.164706 0.756863
0.000000 0.670588 0.596078
0.000000 0.674510 0.596078
0.000000 0.694118 0.588235
0.000000 0.725490 0.576471
1.000000 0.462745 0.372549
0.000000 1.000000 0.749020
0.250980 1.000000 0.749020
0.501961 1.000000 0.749020
0.749020 1.000000 0.749020
1.000000 1.000000 0.749020
0.568627 0.000000 1.000000
0.635294 0.000000 1.000000
0.803922 0.000000 1.000000
1.000000 0.000000 1.000000
1.000000 0.000000 1.000000
0.694118 0.000000 1.000000
0.745098 0.000000 1.000000
0.882353 0.000000 1.000000
1.000000 0.000000 1.000000
1.000000 0.156863 1.000000
0.937255 0.341176 1.000000
0.972549 0.345098 1.000000
1.000000 0.356863 1.000000
1.000000 0.388235 1.000000
1.000000 0.207843 1.000000
0.000000 0.698039 0.831373
0.000000 0.701961 0.831373
0.000000 0.721569 0.823529
1.000000 0.486275 1.000000
1.000000 0.498039 1.000000
0.000000 1.000000 1.000000
0.250980 1.000000 1.000000
0.501961 1.000000 1.000000
0.749020 1.000000 1.000000
1.000000 1.000000 1.000000
