Neutral_25_converted_converted.3dl
0 128 256 384 512 639 767 895 1023
361 0 0
321 0 136
345 0 269
393 0 405
449 0 546
493 0 678
530 0 822
558 0 963
582 0 1023
0 213 0
0 217 120
457 0 285
489 0 421
526 0 558
554 0 690
582 0 830
606 0 967
626 0 1023
0 305 0
0 309 120
0 317 253
0 337 381
650 0 578
666 0 706
682 0 842
698 0 983
710 0 1023
0 429 0
0 433 116
0 441 253
0 453 381
0 473 509
802 84 730
814 92 867
822 112 1003
826 140 1023
0 562 0
0 566 112
0 570 249
0 578 381
0 590 509
0 606 634
0 630 762
959 337 1023
959 349 1023
0 686 0
0 690 108
0 690 245
0 698 377
0 706 509
0 722 634
0 738 762
0 754 891
1023 509 1023
0 654 0
0 654 0
0 658 80
0 662 241
0 666 369
0 674 489
0 686 610
0 698 730
0 714 850
0 750 0
0 750 0
0 754 0
0 758 209
0 762 345
0 766 465
0 774 590
0 786 710
0 798 830
0 1023 0
0 1023 128
0 1023 257
0 1023 385
0 1023 514
0 1023 638
0 1023 766
0 1023 895
0 1023 1023
401 0 0
377 0 144
405 0 273
445 0 409
485 0 550
522 0 682
554 0 822
582 0 963
602 0 1023
0 221 0
0 225 120
497 0 289
526 0 421
554 0 558
578 0 694
606 0 830
626 0 971
642 0 1023
0 313 0
0 317 120
0 325 253
0 345 381
670 0 578
686 0 710
702 0 846
714 0 983
726 0 1023
0 437 0
0 441 116
0 449 249
0 461 381
0 477 509
818 80 730
826 88 867
834 112 1003
842 144 1023
0 566 0
0 570 112
0 574 249
0 582 377
0 594 509
0 610 634
0 634 762
967 337 1023
971 353 1023
0 690 0
0 690 104
0 694 245
0 702 377
0 710 509
0 722 634
0 738 762
0 758 891
1023 509 1023
0 654 0
0 658 0
0 658 76
0 662 241
0 670 369
0 678 489
0 686 610
0 698 730
0 714 850
0 754 0
0 754 0
0 754 0
0 758 209
0 762 345
0 770 465
0 778 590
0 786 710
0 802 830
128 1023 0
128 1023 128
128 1023 257
128 1023 385
128 1023 514
128 1023 638
128 1023 766
128 1023 895
128 1023 1023
509 0 0
501 0 156
518 0 285
542 0 421
566 0 558
590 0 690
614 0 830
634 0 967
650 0 1023
574 0 0
594 0 0
586 0 297
602 0 429
618 0 566
638 0 698
658 0 834
674 0 975
686 0 1023
0 337 0
0 337 116
0 349 249
706 0 449
718 0 582
730 0 714
742 0 850
754 0 987
762 0 1023
0 453 0
0 457 112
0 461 249
0 473 381
0 493 509
850 68 734
859 84 871
867 112 1003
871 148 1023
0 578 0
0 578 108
0 586 245
0 594 377
0 606 509
0 622 634
0 642 762
995 341 1023
995 353 1023
0 698 0
0 698 100
0 702 245
0 710 377
0 718 505
0 730 634
0 746 762
0 766 891
1023 509 1023
0 662 0
0 662 0
0 662 72
0 666 237
0 674 365
0 682 485
0 690 610
0 702 730
0 718 850
0 758 0
0 758 0
0 758 0
0 762 205
0 766 341
0 774 465
0 782 586
0 790 710
0 802 830
257 1023 0
257 1023 128
257 1023 257
257 1023 385
257 1023 514
257 1023 638
257 1023 766
257 1023 895
257 1023 1023
642 0 44
658 0 0
650 0 301
658 0 433
674 0 570
686 0 698
702 0 838
714 0 975
726 0 1023
686 0 128
702 0 0
694 0 309
702 0 441
714 0 574
726 0 706
738 0 842
746 0 983
758 0 1023
766 0 269
786 0 128
810 0 0
786 0 457
794 0 590
802 0 718
810 0 855
818 0 991
822 0 1023
0 481 0
0 481 104
0 489 245
0 501 377
907 40 610
911 56 738
915 84 875
919 116 1011
923 156 1023
0 598 0
0 598 100
0 602 245
0 610 377
0 622 505
0 638 630
1023 333 895
1023 345 1023
1023 357 1023
0 710 0
0 714 96
0 718 241
0 722 373
0 730 505
0 742 630
0 758 758
0 778 891
999 357 1023
0 670 0
0 670 0
0 670 56
0 674 233
0 682 365
0 690 485
0 698 606
0 710 726
0 726 846
0 762 0
0 762 0
0 766 0
0 770 201
0 774 341
0 778 461
0 786 586
0 798 706
0 810 826
385 1023 0
385 1023 128
385 1023 257
385 1023 385
385 1023 514
385 1023 638
385 1023 766
385 1023 895
385 1023 1023
770 0 217
786 0 68
810 0 0
786 0 445
794 0 582
798 0 710
806 0 846
814 0 987
822 0 1023
798 0 269
818 0 124
838 0 0
818 0 453
822 0 586
830 0 718
834 0 855
842 0 991
846 0 1023
859 0 373
883 0 245
907 0 36
887 0 465
891 0 598
895 0 730
899 0 863
903 0 999
903 0 1023
939 68 526
963 20 417
995 0 249
1023 0 0
983 20 618
987 56 746
987 92 879
991 132 1015
991 173 1023
0 622 0
0 626 88
0 630 237
0 638 373
0 646 505
1023 325 766
1023 337 899
1023 349 1023
1023 365 1023
0 730 0
0 734 84
0 738 237
0 742 373
0 750 505
0 762 630
0 778 758
1023 349 903
1023 353 1023
0 682 0
0 682 0
0 682 32
0 686 225
0 694 357
0 702 477
0 710 602
0 722 722
0 738 842
0 774 0
0 774 0
0 774 0
0 778 193
0 782 337
0 790 457
0 798 582
0 806 702
0 818 826
514 1023 0
514 1023 128
514 1023 257
514 1023 385
514 1023 514
514 1023 638
514 1023 766
514 1023 895
514 1023 1023
887 0 373
911 0 229
931 0 16
911 0 461
915 0 594
919 0 722
923 0 859
923 0 995
927 0 1023
907 0 413
931 0 273
955 0 76
939 0 465
939 0 598
943 0 730
943 0 863
947 0 999
947 0 1023
955 0 493
979 0 369
1007 0 189
1023 0 0
991 0 610
995 0 738
995 0 875
995 0 1007
995 0 1023
1015 88 622
1023 44 522
1023 0 353
1023 0 152
1023 32 626
1023 76 754
1023 116 887
1023 156 1023
1023 197 1023
1023 349 790
1023 341 706
1023 325 558
1023 309 373
1023 301 156
1023 333 770
1023 345 907
1023 361 1023
1023 381 1023
0 758 0
0 758 64
0 762 233
0 766 369
0 774 501
0 634 493
1023 341 774
1023 345 903
1023 353 1023
0 698 0
0 698 0
0 698 0
0 702 217
0 710 353
0 714 473
0 726 598
0 738 718
1023 493 1023
0 786 0
0 786 0
0 786 0
0 790 185
0 794 329
0 802 453
0 810 578
0 818 698
638 895 1023
638 1023 0
638 1023 128
638 1023 257
638 1023 385
638 1023 514
638 1023 638
638 1023 766
638 1023 895
638 1023 1023
999 0 534
1023 0 397
1023 0 213
1023 0 0
1023 0 606
1023 0 738
1023 0 871
1023 0 1007
1023 0 1023
1015 0 562
1023 0 433
1023 0 249
1023 0 0
1023 0 610
1023 0 742
1023 0 875
1023 0 1011
1023 0 1023
1023 0 626
1023 0 514
1023 0 337
1023 0 136
1023 0 618
1023 0 750
1023 0 883
1023 0 1019
1023 0 1023
1023 136 738
1023 108 642
1023 52 477
1023 0 289
1023 84 634
1023 116 762
1023 152 895
1023 189 1023
1023 229 1023
1023 369 887
1023 361 806
1023 345 658
1023 329 477
1023 317 281
1023 349 778
1023 361 915
1023 377 1023
1023 397 1023
0 634 0
0 634 0
1023 353 710
1023 337 546
1023 321 365
1023 309 160
1023 341 774
1023 349 903
1023 357 1023
0 718 0
0 718 0
0 718 0
0 722 205
0 726 345
0 734 465
0 742 590
1023 489 903
1023 497 1023
0 802 0
0 802 0
0 802 0
0 806 168
0 810 321
766 895 638
766 895 766
766 895 895
766 895 1023
766 1023 0
766 1023 128
766 1023 257
766 1023 385
766 1023 514
766 1023 638
766 1023 766
766 1023 895
766 1023 1023
1023 0 690
1023 0 570
1023 0 385
1023 0 189
1023 0 622
1023 0 750
1023 0 887
1023 0 1019
1023 0 1023
1023 0 714
1023 0 598
1023 0 417
1023 0 225
1023 0 622
1023 0 754
1023 0 887
1023 0 1023
1023 0 1023
1023 0 770
1023 0 666
1023 0 493
1023 0 301
1023 0 52
1023 0 762
1023 0 895
1023 0 1023
1023 24 1023
1023 205 867
1023 181 774
1023 144 618
1023 104 429
1023 64 229
1023 173 770
1023 201 907
1023 233 1023
1023 269 1023
1023 397 999
1023 389 923
1023 373 778
1023 357 598
1023 345 405
1023 373 786
1023 152 774
1023 173 899
1023 197 1023
1023 385 991
1023 377 927
1023 361 802
1023 341 638
1023 325 457
1023 313 273
1023 341 774
1023 353 903
1023 361 1023
0 742 0
0 742 0
0 742 0
1023 497 830
1023 485 654
1023 473 477
1023 465 281
1023 493 903
1023 501 1023
895 895 0
895 895 128
895 895 257
895 895 385
895 895 514
895 895 638
895 895 766
895 895 895
895 895 1023
895 1023 0
895 1023 128
895 1023 257
895 1023 385
895 1023 514
895 1023 638
895 1023 766
895 1023 895
895 1023 1023
1023 0 850
1023 0 742
1023 0 566
1023 0 373
1023 0 160
1023 0 762
1023 0 899
1023 0 1023
1023 0 1023
1023 0 871
1023 0 766
1023 0 594
1023 0 401
1023 0 193
1023 0 766
1023 0 899
1023 0 1023
1023 0 1023
1023 0 919
1023 0 822
1023 0 658
1023 0 465
1023 0 269
1023 0 770
1023 0 907
1023 80 1023
1023 160 1023
1023 273 1003
1023 257 919
1023 229 762
1023 197 578
1023 173 385
1023 229 782
1023 257 915
1023 0 899
1023 0 1023
1023 237 963
1023 221 895
1023 189 754
1023 152 586
1023 112 401
1023 68 209
1023 168 774
1023 189 899
1023 213 1023
1023 401 1023
1023 393 1023
1023 377 903
1023 357 738
1023 337 562
1023 325 381
1023 349 774
1023 361 903
1023 373 1023
1023 542 1023
1023 538 1023
1023 526 1023
1023 509 919
1023 493 742
1023 481 570
1023 473 381
1023 501 903
1023 509 1023
1023 895 0
1023 895 128
1023 895 257
1023 895 385
1023 895 514
1023 895 638
1023 895 766
1023 895 895
1023 895 1023
1023 1023 0
1023 1023 128
1023 1023 257
1023 1023 385
1023 1023 514
1023 1023 638
1023 1023 766
1023 1023 895
1023 1023 1023
