Neutral_25_converted_converted.3dl
0   43   85   128   170   213   256   298   341   384   426   469   512   554   597   639   682   725   767   810   852   895   938   980   1023
361 0 0
313 0 60
317 0 96
321 0 136
325 0 181
333 0 221
345 0 269
361 0 309
377 0 357
393 0 405
413 0 449
429 0 497
449 0 546
465 0 586
477 0 638
493 0 678
505 0 730
518 0 778
530 0 822
542 0 871
550 0 919
558 0 963
570 0 1011
574 0 1023
582 0 1023
0 181 0
0 185 28
0 185 72
345 0 140
349 0 185
361 0 225
373 0 273
389 0 313
405 0 361
421 0 409
437 0 453
453 0 497
469 0 546
481 0 590
497 0 638
509 0 682
522 0 730
534 0 778
542 0 822
554 0 871
562 0 919
570 0 963
578 0 1011
586 0 1023
594 0 1023
0 193 0
0 197 28
0 197 72
0 197 120
385 0 193
393 0 233
409 0 277
421 0 321
437 0 365
449 0 413
461 0 457
477 0 501
489 0 550
501 0 594
514 0 642
526 0 686
538 0 734
550 0 782
558 0 826
566 0 875
578 0 923
586 0 967
594 0 1015
598 0 1023
606 0 1023
0 213 0
0 213 28
0 213 72
0 217 120
0 217 168
0 221 209
457 0 285
465 0 325
477 0 373
489 0 421
501 0 461
514 0 509
526 0 558
534 0 598
546 0 646
554 0 690
566 0 738
574 0 786
582 0 830
590 0 875
598 0 923
606 0 967
614 0 1015
618 0 1023
626 0 1023
0 237 0
0 237 28
0 241 76
0 241 120
0 245 168
0 249 209
0 253 253
0 257 293
526 0 381
534 0 425
542 0 469
554 0 518
562 0 562
570 0 606
582 0 654
590 0 694
598 0 742
606 0 790
614 0 834
622 0 883
626 0 927
634 0 971
638 0 1019
646 0 1023
650 0 1023
0 265 0
0 269 28
0 269 76
0 269 120
0 273 168
0 277 209
0 281 253
0 285 293
0 293 337
578 0 433
586 0 477
594 0 522
602 0 570
610 0 610
618 0 658
626 0 702
630 0 746
638 0 794
646 0 838
650 0 887
658 0 935
662 0 975
666 0 1023
674 0 1023
678 0 1023
0 305 0
0 305 28
0 305 72
0 309 120
0 309 168
0 313 209
0 317 253
0 321 293
0 329 337
0 337 381
0 345 421
642 0 530
650 0 578
654 0 618
662 0 666
666 0 706
674 0 754
678 0 802
682 0 842
690 0 891
694 0 939
698 0 983
702 0 1023
706 0 1023
710 0 1023
0 341 0
0 341 28
0 345 72
0 345 120
0 349 164
0 349 209
0 353 253
0 357 293
0 365 337
0 369 381
0 377 421
0 385 465
690 0 586
698 0 626
702 0 674
706 0 714
714 0 762
718 0 806
722 0 850
726 0 899
730 0 943
734 0 987
738 0 1023
742 0 1023
746 0 1023
0 385 0
0 385 24
0 385 72
0 389 120
0 389 164
0 393 209
0 397 253
0 401 293
0 405 337
0 413 381
0 417 421
0 425 465
0 433 509
0 441 550
750 0 682
754 0 722
758 0 770
762 0 814
766 0 859
770 0 903
774 0 951
778 0 995
782 0 1023
782 0 1023
786 0 1023
0 429 0
0 433 20
0 433 68
0 433 116
0 437 164
0 437 205
0 441 253
0 445 293
0 449 337
0 453 381
0 457 421
0 465 465
0 473 509
0 477 550
0 485 594
802 84 730
806 84 778
810 88 822
814 92 867
814 96 911
818 104 959
822 112 1003
822 120 1023
826 128 1023
826 140 1023
0 473 0
0 473 16
0 473 64
0 473 116
0 477 164
0 477 205
0 481 249
0 485 293
0 489 337
0 493 381
0 497 421
0 501 465
0 509 509
0 514 550
0 522 594
0 530 634
0 538 678
855 185 830
855 189 871
859 193 919
863 197 967
863 201 1007
867 205 1023
867 213 1023
867 221 1023
0 518 0
0 518 12
0 518 64
0 522 112
0 522 160
0 522 205
0 526 249
0 530 289
0 530 337
0 534 381
0 538 421
0 546 465
0 550 509
0 554 550
0 562 594
0 570 634
0 574 678
0 582 722
903 265 879
907 265 927
907 269 975
911 273 1015
911 277 1023
911 281 1023
915 289 1023
0 562 0
0 562 8
0 562 60
0 566 112
0 566 160
0 566 205
0 570 249
0 570 289
0 574 333
0 578 381
0 582 421
0 586 465
0 590 509
0 594 550
0 602 594
0 606 634
0 614 678
0 622 722
0 630 762
0 638 806
955 333 983
959 337 1023
959 341 1023
959 345 1023
959 349 1023
0 602 0
0 602 4
0 602 56
0 606 112
0 606 160
0 606 201
0 610 249
0 610 289
0 614 333
0 618 377
0 622 421
0 626 465
0 630 509
0 634 550
0 638 594
0 642 634
0 650 678
0 658 722
0 662 762
0 670 806
0 678 850
999 393 1023
1003 397 1023
1003 397 1023
1003 401 1023
0 646 0
0 646 0
0 646 52
0 650 108
0 650 156
0 650 201
0 654 249
0 654 289
0 658 333
0 658 377
0 662 417
0 666 465
0 670 509
0 674 550
0 678 594
0 682 634
0 690 678
0 694 722
0 702 762
0 706 806
0 714 850
0 722 891
0 730 935
1023 453 1023
1023 457 1023
0 686 0
0 686 0
0 686 52
0 690 108
0 690 156
0 690 201
0 690 245
0 694 289
0 694 333
0 698 377
0 702 417
0 706 461
0 706 509
0 710 550
0 714 594
0 722 634
0 726 678
0 730 722
0 738 762
0 742 806
0 750 850
0 754 891
0 762 935
0 770 975
1023 509 1023
0 730 0
0 730 0
0 730 48
0 730 104
0 734 156
0 734 201
0 734 245
0 738 289
0 738 333
0 742 377
0 742 417
0 746 461
0 750 509
0 754 550
0 758 594
0 762 634
0 766 678
0 770 722
0 774 762
0 782 806
0 786 850
0 642 746
0 646 786
0 654 822
0 658 867
0 774 0
0 774 0
0 774 44
0 774 104
0 774 156
0 778 197
0 778 245
0 778 289
0 782 333
0 782 377
0 634 289
0 634 333
0 638 377
0 638 413
0 642 457
0 646 493
0 650 538
0 654 578
0 658 618
0 662 658
0 666 698
0 670 738
0 678 778
0 682 818
0 686 859
0 654 0
0 654 0
0 654 0
0 654 0
0 654 0
0 654 0
0 658 80
0 658 140
0 658 193
0 662 241
0 662 281
0 666 325
0 666 369
0 670 409
0 670 449
0 674 489
0 678 530
0 682 574
0 686 610
0 690 650
0 694 694
0 698 730
0 702 774
0 706 810
0 714 850
0 686 0
0 686 0
0 686 0
0 686 0
0 690 0
0 690 0
0 690 52
0 690 124
0 694 181
0 694 229
0 694 273
0 698 317
0 698 361
0 702 401
0 702 441
0 706 481
0 710 522
0 714 566
0 718 602
0 718 646
0 726 686
0 730 722
0 734 766
0 738 802
0 742 846
0 722 0
0 722 0
0 722 0
0 722 0
0 722 0
0 722 0
0 722 12
0 726 104
0 726 168
0 726 221
0 726 265
0 730 309
0 730 353
0 734 393
0 734 437
0 738 473
0 742 518
0 746 558
0 746 598
0 750 638
0 754 678
0 758 718
0 762 758
0 766 794
0 770 838
0 750 0
0 750 0
0 750 0
0 750 0
0 754 0
0 754 0
0 754 0
0 754 84
0 754 152
0 758 209
0 758 253
0 758 301
0 762 345
0 762 385
0 766 429
0 766 465
0 770 509
0 774 550
0 774 590
0 778 630
0 782 674
0 786 710
0 790 750
0 794 790
0 798 830
0 786 0
0 786 0
0 786 0
0 786 0
0 786 0
0 786 0
0 786 0
0 786 52
0 786 136
0 790 197
0 790 245
0 790 293
0 794 337
0 794 377
0 798 421
0 798 461
0 802 501
0 806 546
0 806 582
0 810 626
0 814 666
0 818 702
0 822 746
0 826 782
0 939 1023
0 814 0
0 814 0
0 814 0
0 814 0
0 814 0
0 814 0
0 818 0
0 818 12
0 818 120
0 818 185
0 818 233
0 822 281
0 979 514
0 979 554
0 979 598
0 979 638
0 979 682
0 979 726
0 979 766
0 979 810
0 979 855
0 979 895
0 979 939
0 979 979
0 979 1023
0 1023 0
0 1023 44
0 1023 84
0 1023 128
0 1023 173
0 1023 213
0 1023 257
0 1023 297
0 1023 341
0 1023 385
0 1023 425
0 1023 469
0 1023 514
0 1023 554
0 1023 598
0 1023 638
0 1023 682
0 1023 726
0 1023 766
0 1023 810
0 1023 855
0 1023 895
0 1023 939
0 1023 979
0 1023 1023
369 0 0
325 0 60
329 0 96
333 0 136
341 0 181
349 0 221
361 0 269
373 0 309
389 0 357
409 0 405
425 0 449
441 0 497
457 0 546
473 0 590
485 0 638
497 0 682
514 0 730
526 0 778
534 0 822
546 0 871
558 0 919
566 0 963
574 0 1011
582 0 1023
586 0 1023
0 185 0
0 185 24
353 0 100
357 0 144
365 0 185
373 0 229
389 0 273
401 0 317
417 0 361
433 0 409
449 0 453
461 0 501
477 0 550
489 0 590
501 0 638
514 0 682
526 0 730
538 0 778
550 0 822
558 0 871
570 0 919
578 0 963
586 0 1011
590 0 1023
598 0 1023
0 197 0
0 197 28
0 197 72
0 201 120
397 0 193
409 0 233
421 0 277
433 0 321
445 0 365
461 0 413
473 0 457
485 0 505
497 0 550
509 0 594
522 0 642
534 0 686
546 0 734
554 0 782
562 0 826
574 0 875
582 0 923
590 0 967
598 0 1015
602 0 1023
610 0 1023
0 213 0
0 213 28
0 217 72
0 217 120
0 221 168
457 0 241
465 0 285
477 0 329
485 0 373
497 0 421
509 0 461
522 0 509
530 0 558
542 0 598
550 0 646
562 0 690
570 0 738
578 0 786
586 0 830
594 0 879
602 0 927
610 0 967
618 0 1015
622 0 1023
630 0 1023
0 237 0
0 241 28
0 241 76
0 245 120
0 245 168
0 249 209
0 257 253
526 0 337
534 0 381
542 0 429
550 0 469
562 0 518
570 0 562
578 0 606
586 0 654
594 0 694
602 0 742
610 0 790
618 0 834
626 0 883
630 0 931
638 0 971
642 0 1019
650 0 1023
654 0 1023
0 269 0
0 269 28
0 269 76
0 273 120
0 277 168
0 281 209
0 285 253
0 289 293
0 297 337
586 0 433
594 0 477
602 0 522
606 0 570
614 0 614
622 0 658
630 0 702
638 0 750
642 0 794
650 0 838
654 0 887
662 0 935
666 0 979
670 0 1023
678 0 1023
682 0 1023
0 305 0
0 305 28
0 309 72
0 309 120
0 313 168
0 317 209
0 321 253
0 325 293
0 333 337
0 337 381
642 0 485
646 0 530
654 0 578
658 0 618
666 0 666
670 0 710
678 0 754
682 0 802
686 0 846
694 0 891
698 0 939
702 0 983
706 0 1023
710 0 1023
714 0 1023
0 345 0
0 345 24
0 345 72
0 349 120
0 349 164
0 353 209
0 357 253
0 361 293
0 365 337
0 373 381
0 381 421
0 389 465
698 0 586
702 0 626
706 0 674
710 0 714
718 0 762
722 0 806
726 0 850
730 0 899
734 0 947
738 0 987
742 0 1023
746 0 1023
750 0 1023
0 385 0
0 389 24
0 389 72
0 389 120
0 393 164
0 397 209
0 397 253
0 401 293
0 409 337
0 413 381
0 421 421
0 425 465
0 433 509
0 441 550
754 0 682
758 0 722
762 0 770
766 0 814
770 0 859
774 0 907
778 0 951
782 0 995
782 0 1023
786 0 1023
790 0 1023
0 433 0
0 433 20
0 433 68
0 437 116
0 437 164
0 441 205
0 441 253
0 445 293
0 449 337
0 457 381
0 461 421
0 465 465
0 473 509
0 481 550
0 489 594
806 84 730
810 84 778
814 88 822
814 88 867
818 96 911
822 104 959
826 112 1003
826 120 1023
830 132 1023
830 144 1023
0 473 0
0 473 16
0 473 64
0 477 116
0 477 164
0 481 205
0 481 249
0 485 293
0 489 337
0 493 381
0 497 421
0 505 465
0 509 509
0 518 550
0 522 594
0 530 634
0 538 678
855 185 830
859 189 871
863 193 919
863 197 967
867 201 1007
867 205 1023
871 213 1023
871 221 1023
