Neutral_25_converted_converted.3dl
0 256 512 767 1023
361 0 0
345 0 269
449 0 546
530 0 822
582 0 1023
0 305 0
0 317 253
650 0 578
682 0 842
710 0 1023
0 562 0
0 570 249
0 590 509
0 630 762
959 349 1023
0 654 0
0 658 80
0 666 369
0 686 610
0 714 850
0 1023 0
0 1023 257
0 1023 514
0 1023 766
0 1023 1023
509 0 0
518 0 285
566 0 558
614 0 830
650 0 1023
0 337 0
0 349 249
718 0 582
742 0 850
762 0 1023
0 578 0
0 586 245
0 606 509
0 642 762
995 353 1023
0 662 0
0 662 72
0 674 365
0 690 610
0 718 850
257 1023 0
257 1023 257
257 1023 514
257 1023 766
257 1023 1023
770 0 217
810 0 0
794 0 582
806 0 846
822 0 1023
859 0 373
907 0 36
891 0 598
899 0 863
903 0 1023
0 622 0
0 630 237
0 646 505
1023 337 899
1023 365 1023
0 682 0
0 682 32
0 694 357
0 710 602
0 738 842
514 1023 0
514 1023 257
514 1023 514
514 1023 766
514 1023 1023
999 0 534
1023 0 213
1023 0 606
1023 0 871
1023 0 1023
1023 0 626
1023 0 337
1023 0 618
1023 0 883
1023 0 1023
1023 369 887
1023 345 658
1023 317 281
1023 361 915
1023 397 1023
0 718 0
0 718 0
0 726 345
0 742 590
1023 497 1023
766 1023 0
766 1023 257
766 1023 514
766 1023 766
766 1023 1023
1023 0 850
1023 0 566
1023 0 160
1023 0 899
1023 0 1023
1023 0 919
1023 0 658
1023 0 269
1023 0 907
1023 160 1023
1023 237 963
1023 189 754
1023 112 401
1023 168 774
1023 213 1023
1023 542 1023
1023 526 1023
1023 493 742
1023 473 381
1023 509 1023
1023 1023 0
1023 1023 257
1023 1023 514
1023 1023 766
1023 1023 1023
