Neutral_25_converted_converted_alternative.3dl
0 255 511 767 1023
360 0 0
344 0 268
448 0 544
528 0 820
580 0 1020
0 304 0
0 316 252
648 0 576
680 0 840
708 0 1020
0 560 0
0 568 248
0 588 508
0 628 760
956 348 1020
0 652 0
0 656 80
0 664 368
0 684 608
0 712 848
0 1020 0
0 1020 256
0 1020 512
0 1020 764
0 1020 1020
508 0 0
516 0 284
564 0 556
612 0 828
648 0 1020
0 336 0
0 348 248
716 0 580
740 0 848
760 0 1020
0 576 0
0 584 244
0 604 508
0 640 760
992 352 1020
0 660 0
0 660 72
0 672 364
0 688 608
0 716 848
256 1020 0
256 1020 256
256 1020 512
256 1020 764
256 1020 1020
768 0 216
808 0 0
792 0 580
804 0 844
820 0 1020
856 0 372
904 0 36
888 0 596
896 0 860
900 0 1020
0 620 0
0 628 236
0 644 504
1020 336 896
1020 364 1020
0 680 0
0 680 32
0 692 356
0 708 600
0 736 840
512 1020 0
512 1020 256
512 1020 512
512 1020 764
512 1020 1020
996 0 532
1020 0 212
1020 0 604
1020 0 868
1020 0 1020
1020 0 624
1020 0 336
1020 0 616
1020 0 880
1020 0 1020
1020 368 884
1020 344 656
1020 316 280
1020 360 912
1020 396 1020
0 716 0
0 716 0
0 724 344
0 740 588
1020 496 1020
764 1020 0
764 1020 256
764 1020 512
764 1020 764
764 1020 1020
1020 0 848
1020 0 564
1020 0 160
1020 0 896
1020 0 1020
1020 0 916
1020 0 656
1020 0 268
1020 0 904
1020 160 1020
1020 236 960
1020 188 752
1020 112 400
1020 168 772
1020 212 1020
1020 540 1020
1020 524 1020
1020 492 740
1020 472 380
1020 508 1020
1020 1020 0
1020 1020 256
1020 1020 512
1020 1020 764
1020 1020 1020
